; generated by Slic3r 1.0.0RC1 on 2014-02-04 at 12:57:54

; layer_height = 0.2
; perimeters = 2
; top_solid_layers = 6
; bottom_solid_layers = 4
; fill_density = 0.20
; perimeter_speed = 60
; infill_speed = 80
; travel_speed = 150
; nozzle_diameter = 0.5
; filament_diameter = 3
; extrusion_multiplier = 1
; perimeters extrusion width = 0.50mm
; infill extrusion width = 1.02mm
; solid infill extrusion width = 0.85mm
; top infill extrusion width = 0.85mm
; support material extrusion width = 0.50mm
; first layer extrusion width = 0.60mm

G21 ; set units to millimeters
M107
M190 S85 ; wait for bed temperature to be reached
M104 S220 ; set temperature
G1 Z30 F200 ; move z to avoid crashes
G28 X0; home x
G28 Y0;home y
G1 Y100 F6000 ; move y to middle
G28 Z0;home z
M109 S220 ; wait for temperature to be reached
G90 ; use absolute coordinates
G92 E0
M82 ; use absolute distances for extrusion
G1 F300.000 E-1.00000
G92 E0
G1 Z0.300 F9000.000
G1 X85.140 Y80.260 F9000.000
G1 E1.00000 F300.000
G1 X86.260 Y79.240 E1.03720 F2520.000
G1 X87.560 Y78.470 E1.07430
G1 X89.000 Y78.000 E1.11149
G1 X90.500 Y77.840 E1.14853
G1 X109.500 Y77.840 E1.61505
G1 X111.020 Y78.010 E1.65261
G1 X112.470 Y78.490 E1.69011
G1 X113.790 Y79.270 E1.72776
G1 X114.910 Y80.320 E1.76546
G1 X115.780 Y81.570 E1.80285
G1 X117.280 Y84.320 E1.87977
G1 X117.940 Y85.980 E1.92363
G1 X118.160 Y87.750 E1.96742
G1 X118.160 Y91.230 E2.05287
G1 X118.100 Y92.120 E2.07477
G1 X117.940 Y92.990 E2.09649
G1 X116.440 Y98.890 E2.24597
G1 X116.270 Y99.450 E2.26034
G1 X110.770 Y115.530 E2.67763
G1 X110.150 Y116.870 E2.71388
G1 X109.270 Y118.050 E2.75002
G1 X108.160 Y119.030 E2.78638
G1 X106.880 Y119.760 E2.82256
G1 X105.470 Y120.210 E2.85890
G1 X104.000 Y120.370 E2.89521
G1 X95.940 Y120.370 E3.09312
G1 X94.470 Y120.210 E3.12942
G1 X93.060 Y119.760 E3.16577
G1 X91.770 Y119.030 E3.20216
G1 X90.660 Y118.040 E3.23868
G1 X89.780 Y116.850 E3.27502
G1 X89.160 Y115.500 E3.31150
G1 X83.720 Y99.420 E3.72831
G1 X83.580 Y98.950 E3.74035
G1 X82.030 Y93.050 E3.89013
G1 X81.850 Y92.150 E3.91267
G1 X81.790 Y91.230 E3.93531
G1 X81.790 Y87.750 E4.02076
G1 X82.030 Y85.930 E4.06583
G1 X82.720 Y84.240 E4.11065
G1 X84.270 Y81.490 E4.18816
G1 X85.090 Y80.331 E4.22302
G1 X85.570 Y80.640 F9000.000
G1 X86.600 Y79.700 E4.25726 F2520.000
G1 X87.800 Y79.000 E4.29138
G1 X89.120 Y78.570 E4.32546
G1 X90.500 Y78.420 E4.35955
G1 X109.500 Y78.420 E4.82607
G1 X110.900 Y78.570 E4.86065
G1 X112.230 Y79.020 E4.89512
G1 X113.440 Y79.730 E4.92957
G1 X114.470 Y80.690 E4.96414
G1 X115.280 Y81.850 E4.99888
G1 X116.780 Y84.600 E5.07580
G1 X117.370 Y86.120 E5.11583
G1 X117.580 Y87.750 E5.15618
G1 X117.580 Y91.230 E5.24163
G1 X117.530 Y92.050 E5.26180
G1 X117.380 Y92.850 E5.28179
G1 X115.880 Y98.750 E5.43127
G1 X115.720 Y99.260 E5.44439
G1 X110.220 Y115.340 E5.86168
G1 X109.650 Y116.570 E5.89496
G1 X108.840 Y117.660 E5.92831
G1 X107.830 Y118.560 E5.96152
G1 X106.640 Y119.230 E5.99506
G1 X105.350 Y119.650 E6.02837
G1 X104.000 Y119.790 E6.06169
G1 X95.940 Y119.790 E6.25960
G1 X94.590 Y119.650 E6.29292
G1 X93.290 Y119.230 E6.32647
G1 X92.110 Y118.560 E6.35979
G1 X91.090 Y117.650 E6.39335
G1 X90.280 Y116.560 E6.42670
G1 X89.710 Y115.320 E6.46021
G1 X84.270 Y99.240 E6.87702
G1 X84.140 Y98.800 E6.88828
G1 X82.590 Y92.900 E7.03807
G1 X82.430 Y92.070 E7.05882
G1 X82.370 Y91.230 E7.07950
G1 X82.370 Y87.750 E7.16495
G1 X82.590 Y86.080 E7.20631
G1 X83.220 Y84.520 E7.24762
G1 X84.770 Y81.770 E7.32513
G1 X85.520 Y80.711 E7.35699
G1 F300.000 E6.35699
G92 E0
G1 X106.879 Y85.879 F9000.000
G1 E1.00000 F300.000
G1 X108.621 Y85.879 E1.04280 F2100.000
G1 X108.621 Y96.258 E1.29765
G1 X106.879 Y96.258 E1.34044
G1 X106.879 Y85.965 E1.59317
G1 F300.000 E0.59317
G92 E0
G1 X110.743 Y82.000 F9000.000
G1 X93.121 Y85.879 F9000.000
G1 E1.00000 F300.000
G1 X93.121 Y96.258 E1.25485 F2100.000
G1 X91.379 Y96.258 E1.29765
G1 X91.379 Y85.879 E1.55250
G1 X93.035 Y85.879 E1.59317
G1 X93.700 Y85.300 F9000.000
G1 X93.700 Y95.300 E1.83871 F1764.000
G1 X106.300 Y95.300 E2.14809
G1 X106.300 Y85.300 E2.39363
G1 X109.200 Y85.300 E2.46483
G1 X109.200 Y96.836 E2.74810
G1 X90.800 Y96.836 E3.19989
G1 X90.800 Y85.300 E3.48315
G1 X93.613 Y85.300 E3.55223
G1 X93.411 Y85.801 F9000.000
G1 X91.798 Y86.298 F9000.000
G1 X92.702 Y86.298 E3.57511 F1680.000
G1 X92.702 Y86.894 E3.59020
G1 X91.798 Y86.894 E3.61308
G1 X91.798 Y87.491 E3.62817
G1 X92.702 Y87.491 E3.65105
G1 X92.702 Y88.087 E3.66614
G1 X91.798 Y88.087 E3.68902
G1 X91.798 Y88.683 E3.70411
G1 X92.702 Y88.683 E3.72699
G1 X92.702 Y89.279 E3.74208
G1 X91.798 Y89.279 E3.76496
G1 X91.798 Y89.876 E3.78005
G1 X92.702 Y89.876 E3.80292
G1 X92.702 Y90.472 E3.81801
G1 X91.798 Y90.472 E3.84089
G1 X91.798 Y91.068 E3.85598
G1 X92.702 Y91.068 E3.87886
G1 X92.702 Y91.664 E3.89395
G1 X91.798 Y91.664 E3.91683
G1 X91.798 Y92.261 E3.93192
G1 X92.702 Y92.261 E3.95480
G1 X92.702 Y92.857 E3.96989
G1 X91.798 Y92.857 E3.99277
G1 X91.798 Y93.453 E4.00786
G1 X92.702 Y93.453 E4.03074
G1 X92.702 Y94.050 E4.04583
G1 X91.798 Y94.050 E4.06871
G1 X91.798 Y94.646 E4.08380
G1 X92.702 Y94.646 E4.10668
G1 X92.702 Y95.242 E4.12177
G1 X91.798 Y95.242 E4.14465
G1 X91.798 Y95.838 E4.15974
G1 X92.702 Y95.838 E4.18262
G1 X93.711 Y96.247 F9000.000
G1 X106.289 Y96.247 E4.49147 F840.000
G1 F300.000 E3.49147
G92 E0
G1 X105.500 Y91.230 F9000.000
G1 E1.00000 F300.000
G1 X104.442 Y91.230 E1.02598 F1680.000
G1 X104.442 Y90.073 E1.05439
G1 X105.500 Y90.073 E1.08036
G1 X105.500 Y88.916 E1.10877
G1 X104.442 Y88.916 E1.13475
G1 X104.442 Y87.759 E1.16316
G1 X105.500 Y87.759 E1.18913
G1 F300.000 E0.18913
G92 E0
G1 X111.000 Y87.759 F9000.000
G1 E1.00000 F300.000
G1 X109.942 Y87.759 E1.02598 F1680.000
G1 X109.942 Y88.916 E1.05439
G1 X111.000 Y88.916 E1.08036
G1 X111.000 Y90.073 E1.10877
G1 X109.942 Y90.073 E1.13475
G1 X109.942 Y91.230 E1.16316
G1 X111.000 Y91.230 E1.18913
G1 F300.000 E0.18913
G92 E0
G1 X95.500 Y91.230 F9000.000
G1 E1.00000 F300.000
G1 X94.442 Y91.230 E1.02598 F1680.000
G1 X94.442 Y90.073 E1.05439
G1 X95.500 Y90.073 E1.08036
G1 X95.500 Y88.916 E1.10877
G1 X94.442 Y88.916 E1.13475
G1 X94.442 Y87.759 E1.16316
G1 X95.500 Y87.759 E1.18913
G1 F300.000 E0.18913
G92 E0
G1 X90.000 Y87.759 F9000.000
G1 E1.00000 F300.000
G1 X88.942 Y87.759 E1.02598 F1680.000
G1 X88.942 Y88.916 E1.05439
G1 X90.000 Y88.916 E1.08036
G1 X90.000 Y90.073 E1.10877
G1 X88.942 Y90.073 E1.13475
G1 X88.942 Y91.230 E1.16316
G1 X90.000 Y91.230 E1.18913
G1 F300.000 E0.18913
G92 E0
G1 X95.942 Y106.272 F9000.000
G1 E1.00000 F300.000
G1 X97.308 Y106.272 E1.03353 F1680.000
G1 F300.000 E0.03353
G92 E0
G1 X102.692 Y106.272 F9000.000
G1 E1.00000 F300.000
G1 X104.000 Y106.272 E1.03211 F1680.000
G1 X104.000 Y107.429 E1.06052
G1 X95.942 Y107.429 E1.25838
G1 X95.942 Y108.586 E1.28679
G1 X104.000 Y108.586 E1.48464
G1 X104.000 Y109.743 E1.51305
G1 X95.942 Y109.743 E1.71091
G1 X95.942 Y110.900 E1.73932
G1 X104.000 Y110.900 E1.93717
G1 X104.000 Y112.058 E1.96558
G1 X95.942 Y112.058 E2.16343
G1 X95.942 Y113.215 E2.19184
G1 X104.000 Y113.215 E2.38970
M106 S25
M140 S80 ; set bed temperature
G1 F300.000 E1.38970
G92 E0
G1 Z0.475 F9000.000
G1 X103.500 Y112.000 F9000.000
G1 E1.00000 F300.000
G1 X96.325 Y112.000 E1.08882 F1053.440
G1 X96.325 Y108.500 E1.13214
G1 X103.500 Y108.500 E1.22096
G1 F300.000 E0.22096
G92 E0
G1 X97.250 Y105.750 F9000.000
G1 E1.00000 F300.000
G1 X96.000 Y105.750 E1.01547 F1053.440
G1 X96.000 Y113.675 E1.11358
G1 X104.000 Y113.675 E1.21261
G1 X104.000 Y105.750 E1.31071
G1 X102.750 Y105.750 E1.32618
G1 X102.750 Y107.250 E1.34475
G1 X97.250 Y107.250 E1.41283
G1 X97.250 Y105.750 E1.43140
G1 F300.000 E0.43140
G92 E0
G1 X95.000 Y91.000 F9000.000
G1 E1.00000 F300.000
G1 X94.825 Y91.000 E1.00217 F1053.440
G1 X95.500 Y87.494 F9000.000
G1 X94.500 Y87.500 E1.01455 F1053.440
G1 X94.500 Y91.500 E1.06406
G1 X95.500 Y91.504 E1.07644
G1 X95.500 Y87.494 E1.12608
G1 F300.000 E0.12608
G92 E0
G1 X90.000 Y87.524 F9000.000
G1 E1.00000 F300.000
G1 X89.000 Y87.529 E1.01238 F1053.440
G1 X89.000 Y91.476 E1.06124
G1 X90.000 Y91.480 E1.07362
G1 X90.000 Y87.524 E1.12259
G1 X89.500 Y91.000 F9000.000
G1 X89.325 Y91.000 E1.12476 F1053.440
G1 F300.000 E0.12476
G92 E0
G1 X104.825 Y91.000 F9000.000
G1 E1.00000 F300.000
G1 X105.000 Y91.000 E1.00217 F1053.440
G1 X105.500 Y87.502 F9000.000
G1 X104.500 Y87.502 E1.01455 F1053.440
G1 X104.500 Y91.498 E1.06400
G1 X105.500 Y91.498 E1.07638
G1 X105.500 Y87.502 E1.12584
G1 F300.000 E0.12584
G92 E0
G1 X111.000 Y87.502 F9000.000
G1 E1.00000 F300.000
G1 X110.000 Y87.502 E1.01238 F1053.440
G1 X110.000 Y91.498 E1.06184
G1 X111.000 Y91.498 E1.07422
G1 X111.000 Y87.502 E1.12367
G1 X110.500 Y91.000 F9000.000
G1 X110.325 Y91.000 E1.12584 F1053.440
G1 F300.000 E0.12584
G92 E0
G1 Z0.500 F9000.000
G1 X109.000 Y85.500 F9000.000
G1 X108.750 Y85.750 F9000.000
G1 E1.00000 F300.000
G1 X108.750 Y96.582 E1.15325 F1580.160
G1 X101.750 Y96.582 E1.25228
G1 X101.750 Y96.614 E1.25272
G1 X98.250 Y96.614 E1.30223
G1 X98.250 Y96.582 E1.30267
G1 X91.250 Y96.582 E1.40170
G1 X91.250 Y85.750 E1.55495
G1 X93.250 Y85.750 E1.58325
G1 X93.250 Y95.750 E1.72472
G1 X106.750 Y95.750 E1.91570
G1 X106.750 Y85.750 E2.05717
G1 X108.675 Y85.750 E2.08441
G1 X109.250 Y85.250 F9000.000
G1 X109.250 Y97.082 E2.25180 F1106.112
G1 X102.250 Y97.082 E2.35083
G1 X102.250 Y97.114 E2.35127
G1 X97.750 Y97.114 E2.41494
G1 X97.750 Y97.082 E2.41538
G1 X90.750 Y97.082 E2.51441
G1 X90.750 Y85.250 E2.68180
G1 X93.750 Y85.250 E2.72424
G1 X93.750 Y95.250 E2.86571
G1 X106.250 Y95.250 E3.04255
G1 X106.250 Y85.250 E3.18402
G1 X109.175 Y85.250 E3.22540
G1 X109.000 Y85.683 F9000.000
G1 X108.318 Y86.182 F9000.000
G1 X108.318 Y96.151 E3.54608 F1053.440
G1 X107.182 Y96.151 E3.58265
G1 X107.182 Y86.182 E3.90333
G1 F300.000 E2.90333
G92 E0
G1 X106.500 Y85.500 F9000.000
G1 X92.818 Y86.182 F9000.000
G1 E1.00000 F300.000
G1 X92.818 Y96.151 E1.32068 F1053.440
G1 X91.682 Y96.151 E1.35725
G1 X91.682 Y86.182 E1.67792
G1 F300.000 E0.67792
G92 E0
G1 Z0.700 F9000.000
G1 X91.250 Y85.750 F9000.000
G1 E1.00000 F300.000
G1 X93.250 Y85.750 E1.02829 F1625.533
G1 X93.250 Y95.750 E1.16977
G1 X106.750 Y95.750 E1.36075
G1 X106.750 Y85.750 E1.50222
G1 X108.750 Y85.750 E1.53052
G1 X108.750 Y96.731 E1.68587
G1 X101.750 Y96.731 E1.78490
G1 X101.750 Y96.795 E1.78581
G1 X98.250 Y96.795 E1.83532
G1 X98.250 Y96.731 E1.83623
G1 X91.250 Y96.731 E1.93526
G1 X91.250 Y85.825 E2.08955
G1 X90.750 Y85.250 F9000.000
G1 X93.750 Y85.250 E2.13199 F1137.873
G1 X93.750 Y95.250 E2.27346
G1 X106.250 Y95.250 E2.45030
G1 X106.250 Y85.250 E2.59177
G1 X109.250 Y85.250 E2.63422
G1 X109.250 Y97.231 E2.80372
G1 X102.250 Y97.231 E2.90275
G1 X102.250 Y97.295 E2.90365
G1 X97.750 Y97.295 E2.96732
G1 X97.750 Y97.231 E2.96822
G1 X90.750 Y97.231 E3.06725
G1 X90.750 Y85.325 E3.23569
G1 X91.183 Y85.500 F9000.000
G1 X91.682 Y86.182 F9000.000
G1 X92.818 Y86.182 E3.26281 F1083.689
G1 X92.818 Y87.025 E3.28293
G1 X91.682 Y87.025 E3.31005
G1 X91.682 Y87.868 E3.33017
G1 X92.818 Y87.868 E3.35729
G1 X92.818 Y88.711 E3.37741
G1 X91.682 Y88.711 E3.40453
G1 X91.682 Y89.554 E3.42464
G1 X92.818 Y89.554 E3.45177
G1 X92.818 Y90.397 E3.47188
G1 X91.682 Y90.397 E3.49900
G1 X91.682 Y91.241 E3.51912
G1 X92.818 Y91.241 E3.54624
G1 X92.818 Y92.084 E3.56636
G1 X91.682 Y92.084 E3.59348
G1 X91.682 Y92.927 E3.61359
G1 X92.818 Y92.927 E3.64072
G1 X92.818 Y93.770 E3.66083
G1 X91.682 Y93.770 E3.68795
G1 X91.682 Y94.613 E3.70807
G1 X92.818 Y94.613 E3.73519
G1 X92.818 Y95.457 E3.75531
G1 X91.682 Y95.457 E3.78243
G1 X91.682 Y96.300 E3.80255
G1 X92.818 Y96.300 E3.82967
G1 X108.318 Y96.300 F9000.000
G1 X107.182 Y96.300 E3.85679 F1083.689
G1 X107.182 Y95.457 E3.87690
G1 X108.318 Y95.457 E3.90403
G1 X108.318 Y94.613 E3.92414
G1 X107.182 Y94.613 E3.95126
G1 X107.182 Y93.770 E3.97138
G1 X108.318 Y93.770 E3.99850
G1 X108.318 Y92.927 E4.01862
G1 X107.182 Y92.927 E4.04574
G1 X107.182 Y92.084 E4.06586
G1 X108.318 Y92.084 E4.09298
G1 X108.318 Y91.241 E4.11309
G1 X107.182 Y91.241 E4.14022
G1 X107.182 Y90.397 E4.16033
G1 X108.318 Y90.397 E4.18745
G1 X108.318 Y89.554 E4.20757
G1 X107.182 Y89.554 E4.23469
G1 X107.182 Y88.711 E4.25481
G1 X108.318 Y88.711 E4.28193
G1 X108.318 Y87.868 E4.30204
G1 X107.182 Y87.868 E4.32917
G1 X107.182 Y87.025 E4.34928
G1 X108.318 Y87.025 E4.37640
G1 X108.318 Y86.182 E4.39652
G1 X107.182 Y86.182 E4.42364
G1 F300.000 E3.42364
G92 E0
G1 Z0.850 F9000.000
G1 X105.500 Y87.502 F9000.000
G1 E1.00000 F300.000
G1 X104.500 Y87.502 E1.02653 F1083.689
G1 X104.500 Y91.498 E1.13251
G1 X105.500 Y91.498 E1.15903
G1 X105.500 Y87.502 E1.26501
G1 F300.000 E0.26501
G92 E0
G1 X111.000 Y87.502 F9000.000
G1 E1.00000 F300.000
G1 X110.000 Y87.502 E1.02653 F1083.689
G1 X110.000 Y91.498 E1.13251
G1 X111.000 Y91.498 E1.15903
G1 X111.000 Y87.502 E1.26501
G1 F300.000 E0.26501
G92 E0
G1 X95.500 Y87.494 F9000.000
G1 E1.00000 F300.000
G1 X94.500 Y87.500 E1.02653 F1083.689
G1 X94.500 Y91.500 E1.13264
G1 X95.500 Y91.504 E1.15916
G1 X95.500 Y87.494 E1.26553
G1 X95.000 Y87.822 F9000.000
G1 X95.000 Y91.002 E1.34989 F1083.689
G1 F300.000 E0.34989
G92 E0
G1 X90.000 Y87.524 F9000.000
G1 E1.00000 F300.000
G1 X89.000 Y87.529 E1.02653 F1083.689
G1 X89.000 Y91.476 E1.13122
G1 X90.000 Y91.480 E1.15775
G1 X90.000 Y87.524 E1.26270
G1 F300.000 E0.26270
G92 E0
G1 X97.250 Y105.750 F9000.000
G1 E1.00000 F300.000
G1 X96.000 Y105.750 E1.03316 F1083.689
G1 X96.000 Y113.675 E1.24338
G1 X104.000 Y113.675 E1.45558
G1 X104.000 Y105.750 E1.66580
G1 X102.750 Y105.750 E1.69896
G1 X102.750 Y107.250 E1.73875
G1 X97.250 Y107.250 E1.88464
G1 X97.250 Y105.750 E1.92443
G1 F300.000 E0.92443
G92 E0
G1 X98.500 Y113.175 F9000.000
G1 E1.00000 F300.000
G1 X98.500 Y107.575 E1.14855 F1083.689
G1 X102.000 Y107.575 E1.24139
G1 X102.000 Y113.175 E1.38993
G1 F300.000 E0.38993
G92 E0
G1 Z0.900 F9000.000
G1 X111.500 Y99.630 F9000.000
G1 X101.750 Y96.977 F9000.000
G1 E1.00000 F300.000
G1 X98.250 Y96.977 E1.04951 F1034.592
G1 X98.250 Y96.880 E1.05089
G1 X91.250 Y96.880 E1.14992
G1 X91.250 Y85.750 E1.30738
G1 X93.250 Y85.750 E1.33567
G1 X93.250 Y95.750 E1.47714
G1 X106.750 Y95.750 E1.66813
G1 X106.750 Y85.750 E1.80960
G1 X108.750 Y85.750 E1.83789
G1 X108.750 Y96.880 E1.99535
G1 X101.750 Y96.880 E2.09438
G1 X101.750 Y96.902 E2.09470
G1 X102.250 Y97.380 F9000.000
G1 X102.250 Y97.477 E2.09607 F724.215
G1 X97.750 Y97.477 E2.15973
G1 X97.750 Y97.380 E2.16111
G1 X90.750 Y97.380 E2.26014
G1 X90.750 Y85.250 E2.43174
G1 X93.750 Y85.250 E2.47419
G1 X93.750 Y95.250 E2.61566
G1 X106.250 Y95.250 E2.79250
G1 X106.250 Y85.250 E2.93397
G1 X109.250 Y85.250 E2.97641
G1 X109.250 Y97.380 E3.14801
G1 X102.325 Y97.380 E3.24598
G1 X102.153 Y97.380 F9000.000
G1 F300.000 E2.24598
G92 E0
G1 X106.500 Y95.500 F9000.000
G1 X92.818 Y86.182 F9000.000
G1 E1.00000 F300.000
G1 X92.818 Y96.448 E1.33025 F689.728
G1 X91.682 Y96.448 E1.36682
G1 X91.682 Y86.182 E1.69707
G1 F300.000 E0.69707
G92 E0
G1 X91.000 Y85.500 F9000.000
G1 X107.182 Y86.182 F9000.000
G1 E1.00000 F300.000
G1 X107.182 Y96.448 E1.33025 F689.728
G1 X108.318 Y96.448 E1.36682
G1 X108.318 Y86.182 E1.69707
G1 F300.000 E0.69707
G92 E0
G1 Z1.100 F9000.000
G1 X108.750 Y85.750 F9000.000
G1 E1.00000 F300.000
G1 X108.750 Y97.028 E1.15955 F1655.999
G1 X101.750 Y97.028 E1.25858
G1 X101.750 Y97.159 E1.26044
G1 X98.250 Y97.159 E1.30995
G1 X98.250 Y97.028 E1.31180
G1 X91.250 Y97.028 E1.41083
G1 X91.250 Y85.750 E1.57039
G1 X93.250 Y85.750 E1.59868
G1 X93.250 Y95.750 E1.74015
G1 X106.750 Y95.750 E1.93114
G1 X106.750 Y85.750 E2.07261
G1 X108.675 Y85.750 E2.09984
G1 X109.250 Y85.250 F9000.000
G1 X109.250 Y97.528 E2.27354 F1159.199
G1 X102.250 Y97.528 E2.37257
G1 X102.250 Y97.659 E2.37442
G1 X97.750 Y97.659 E2.43809
G1 X97.750 Y97.528 E2.43994
G1 X90.750 Y97.528 E2.53897
G1 X90.750 Y85.250 E2.71267
G1 X93.750 Y85.250 E2.75511
G1 X93.750 Y95.250 E2.89658
G1 X106.250 Y95.250 E3.07342
G1 X106.250 Y85.250 E3.21489
G1 X109.175 Y85.250 E3.25627
G1 X109.000 Y85.683 F9000.000
G1 F300.000 E2.25627
G92 E0
G1 X109.000 Y85.500 F9000.000
G1 X101.318 Y96.728 F9000.000
G1 E1.00000 F300.000
G1 X98.682 Y96.728 E1.06021 F1103.999
G1 X108.318 Y96.597 F9000.000
G1 X107.182 Y96.597 E1.08813 F1103.999
