; generated by Slic3r 1.0.0RC1 on 2013-12-23 at 16:26:51

; layer_height = 0.2
; perimeters = 2
; top_solid_layers = 4
; bottom_solid_layers = 2
; fill_density = 0.25
; perimeter_speed = 50
; infill_speed = 65
; travel_speed = 150
; nozzle_diameter = 0.5
; filament_diameter = 2.93
; extrusion_multiplier = 1
; perimeters extrusion width = 0.50mm
; infill extrusion width = 1.02mm
; solid infill extrusion width = 0.85mm
; top infill extrusion width = 0.85mm
; first layer extrusion width = 0.60mm

G21 ; set units to millimeters
M107
M190 S90 ; wait for bed temperature to be reached
M104 S220 ; set temperature

G28 X0; home x
G28 Y0;home y
G1 Y100 F2000 ; move y to middle
G28 Z0;home z
M109 S220 ; wait for temperature to be reached
G90 ; use absolute coordinates
G92 E0
M82 ; use absolute distances for extrusion
G1 F300.000 E-1.00000
G92 E0
G1 Z0.300 F9000.000
G1 X33.060 Y99.420 F9000.000
G1 E1.00000 F300.000
G1 X88.210 Y79.420 E2.51010 F2100.000
G1 X88.910 Y79.210 E2.52891
G1 X148.760 Y64.210 E4.11717
G1 X149.620 Y64.050 E4.13969
G1 X150.500 Y63.990 E4.16239
G1 X164.500 Y63.990 E4.52277
G1 X165.900 Y64.130 E4.55899
G1 X167.240 Y64.540 E4.59506
G1 X168.480 Y65.200 E4.63122
G1 X169.560 Y66.090 E4.66724
G1 X170.450 Y67.170 E4.70327
G1 X171.110 Y68.410 E4.73942
G1 X171.520 Y69.750 E4.77550
G1 X171.660 Y71.150 E4.81171
G1 X171.660 Y91.150 E5.32654
G1 X171.600 Y92.040 E5.34950
G1 X166.900 Y129.740 E6.32746
G1 X166.570 Y131.170 E6.36523
G1 X165.950 Y132.510 E6.40324
G1 X165.070 Y133.700 E6.44134
G1 X163.960 Y134.670 E6.47928
G1 X162.670 Y135.400 E6.51744
G1 X161.270 Y135.850 E6.55529
G1 X159.800 Y136.010 E6.59336
G1 X35.500 Y136.010 E9.79299
G1 X34.100 Y135.870 E9.82921
G1 X32.760 Y135.460 E9.86528
G1 X31.520 Y134.800 E9.90144
G1 X30.440 Y133.910 E9.93746
G1 X29.550 Y132.830 E9.97349
G1 X28.890 Y131.590 E10.00965
G1 X28.480 Y130.250 E10.04572
G1 X28.340 Y128.850 E10.08194
G1 X28.340 Y106.150 E10.66626
G1 X28.490 Y104.700 E10.70379
G1 X28.930 Y103.310 E10.74132
G1 X29.640 Y102.040 E10.77877
G1 X30.590 Y100.940 E10.81618
G1 X31.750 Y100.050 E10.85382
G1 X32.982 Y99.458 E10.88900
G1 X33.260 Y99.970 F9000.000
G1 X88.410 Y79.970 E12.39910 F2100.000
G1 X89.050 Y79.770 E12.41636
G1 X148.900 Y64.770 E14.00462
G1 X149.690 Y64.620 E14.02532
G1 X150.500 Y64.570 E14.04621
G1 X164.500 Y64.570 E14.40659
G1 X165.780 Y64.700 E14.43971
G1 X167.020 Y65.070 E14.47301
G1 X168.150 Y65.680 E14.50607
G1 X169.150 Y66.500 E14.53936
G1 X169.970 Y67.500 E14.57265
G1 X170.580 Y68.630 E14.60570
G1 X170.950 Y69.870 E14.63901
G1 X171.080 Y71.150 E14.67213
G1 X171.080 Y91.150 E15.18696
G1 X171.030 Y91.960 E15.20785
G1 X166.330 Y129.660 E16.18580
G1 X166.020 Y130.990 E16.22096
G1 X165.450 Y132.220 E16.25585
G1 X164.640 Y133.310 E16.29081
G1 X163.620 Y134.200 E16.32566
G1 X162.440 Y134.870 E16.36058
G1 X161.150 Y135.290 E16.39551
G1 X159.800 Y135.430 E16.43044
G1 X35.500 Y135.430 E19.63008
G1 X34.220 Y135.300 E19.66320
G1 X32.980 Y134.930 E19.69651
G1 X31.850 Y134.320 E19.72956
G1 X30.850 Y133.500 E19.76285
G1 X30.030 Y132.500 E19.79614
G1 X29.420 Y131.370 E19.82920
G1 X29.050 Y130.130 E19.86251
G1 X28.920 Y128.850 E19.89562
G1 X28.920 Y106.150 E20.47995
G1 X29.060 Y104.820 E20.51437
G1 X29.460 Y103.540 E20.54889
G1 X30.110 Y102.370 E20.58335
G1 X30.990 Y101.360 E20.61783
G1 X32.050 Y100.550 E20.65217
G1 X33.182 Y100.008 E20.68448
G1 F300.000 E19.68448
G92 E0
G1 X41.356 Y122.025 F9000.000
G1 E1.00000 F300.000
G1 X41.630 Y121.939 E1.00740 F1470.000
G1 X41.854 Y121.898 E1.01325
G1 X42.200 Y121.870 E1.02219
G1 X42.487 Y121.887 E1.02958
G1 X42.770 Y121.939 E1.03698
G1 X43.044 Y122.025 E1.04438
G1 X43.306 Y122.142 E1.05178
G1 X43.552 Y122.291 E1.05918
G1 X43.778 Y122.468 E1.06658
G1 X43.982 Y122.672 E1.07397
G1 X44.159 Y122.898 E1.08137
G1 X44.307 Y123.144 E1.08877
G1 X44.425 Y123.406 E1.09617
G1 X44.869 Y124.828 E1.13451
G1 X44.508 Y124.828 E1.14378
G1 X44.425 Y125.094 E1.15095
G1 X44.308 Y125.356 E1.15835
G1 X44.159 Y125.602 E1.16575
G1 X43.982 Y125.828 E1.17315
G1 X43.778 Y126.032 E1.18055
G1 X43.552 Y126.209 E1.18794
G1 X43.306 Y126.357 E1.19534
G1 X43.044 Y126.475 E1.20274
G1 X42.770 Y126.561 E1.21014
G1 X42.487 Y126.613 E1.21754
G1 X42.200 Y126.630 E1.22493
G1 X41.913 Y126.613 E1.23234
G1 X41.630 Y126.561 E1.23973
G1 X41.356 Y126.475 E1.24713
G1 X41.094 Y126.358 E1.25453
G1 X40.848 Y126.209 E1.26193
G1 X40.622 Y126.032 E1.26933
G1 X40.418 Y125.828 E1.27673
G1 X40.241 Y125.602 E1.28413
G1 X40.123 Y125.407 E1.28998
G1 X39.975 Y125.094 E1.29891
G1 X39.889 Y124.820 E1.30631
G1 X39.837 Y124.537 E1.31371
G1 X39.820 Y124.250 E1.32111
G1 X39.837 Y123.963 E1.32851
G1 X39.889 Y123.680 E1.33591
G1 X39.975 Y123.406 E1.34331
G1 X40.092 Y123.144 E1.35070
G1 X40.210 Y122.949 E1.35656
G1 X40.418 Y122.672 E1.36549
G1 X40.622 Y122.468 E1.37289
G1 X40.848 Y122.291 E1.38029
G1 X41.094 Y122.142 E1.38769
G1 X41.277 Y122.060 E1.39285
G1 X41.539 Y122.577 F9000.000
G1 X41.769 Y122.502 E1.39909 F1470.000
G1 X41.983 Y122.463 E1.40468
G1 X42.200 Y122.449 E1.41028
G1 X42.417 Y122.463 E1.41588
G1 X42.631 Y122.502 E1.42147
G1 X42.838 Y122.566 E1.42707
G1 X43.201 Y122.755 E1.43760
G1 X43.394 Y122.902 E1.44384
G1 X43.548 Y123.056 E1.44944
G1 X43.682 Y123.227 E1.45503
G1 X43.794 Y123.413 E1.46063
G1 X43.884 Y123.612 E1.46623
G1 X44.082 Y124.249 E1.48342
G1 X44.027 Y124.249 E1.48484
G1 X43.948 Y124.681 E1.49613
G1 X43.884 Y124.888 E1.50173
G1 X43.794 Y125.087 E1.50732
G1 X43.682 Y125.273 E1.51292
G1 X43.548 Y125.444 E1.51852
G1 X43.394 Y125.598 E1.52412
G1 X43.223 Y125.732 E1.52971
G1 X43.037 Y125.844 E1.53531
G1 X42.838 Y125.934 E1.54091
G1 X42.631 Y125.998 E1.54650
G1 X42.417 Y126.037 E1.55210
G1 X42.200 Y126.051 E1.55770
G1 X41.983 Y126.037 E1.56329
G1 X41.769 Y125.998 E1.56889
G1 X41.562 Y125.934 E1.57449
G1 X41.363 Y125.844 E1.58008
G1 X41.177 Y125.732 E1.58568
G1 X41.006 Y125.598 E1.59128
G1 X40.852 Y125.444 E1.59688
G1 X40.718 Y125.273 E1.60247
G1 X40.606 Y125.087 E1.60807
G1 X40.516 Y124.888 E1.61367
G1 X40.452 Y124.681 E1.61926
G1 X40.413 Y124.467 E1.62486
G1 X40.399 Y124.250 E1.63046
G1 X40.413 Y124.033 E1.63605
G1 X40.452 Y123.819 E1.64165
G1 X40.516 Y123.612 E1.64725
G1 X40.705 Y123.249 E1.65778
G1 X40.852 Y123.056 E1.66401
G1 X41.006 Y122.902 E1.66961
G1 X41.177 Y122.768 E1.67521
G1 X41.460 Y122.612 E1.68351
G1 X41.575 Y122.337 F9000.000
G1 X42.200 Y113.280 F9000.000
G1 X41.906 Y113.263 E1.69109 F1470.000
G1 X41.617 Y113.212 E1.69866
G1 X41.335 Y113.127 E1.70623
G1 X41.065 Y113.011 E1.71381
G1 X40.810 Y112.864 E1.72138
G1 X40.574 Y112.688 E1.72895
G1 X40.402 Y112.526 E1.73503
G1 X40.171 Y112.261 E1.74409
G1 X40.009 Y112.015 E1.75167
G1 X39.877 Y111.752 E1.75924
G1 X39.776 Y111.476 E1.76681
G1 X39.708 Y111.189 E1.77439
G1 X39.674 Y110.897 E1.78196
G1 X39.674 Y110.603 E1.78953
G1 X39.708 Y110.311 E1.79711
G1 X39.776 Y110.024 E1.80468
G1 X39.857 Y109.803 E1.81076
G1 X40.009 Y109.485 E1.81982
G1 X40.171 Y109.239 E1.82739
G1 X40.360 Y109.014 E1.83497
G1 X40.574 Y108.812 E1.84254
G1 X40.810 Y108.636 E1.85011
G1 X41.065 Y108.489 E1.85769
G1 X41.335 Y108.373 E1.86526
G1 X41.617 Y108.288 E1.87284
G1 X41.849 Y108.247 E1.87891
G1 X42.200 Y108.220 E1.88797
G1 X42.494 Y108.237 E1.89555
G1 X42.783 Y108.288 E1.90312
G1 X43.065 Y108.373 E1.91069
G1 X43.335 Y108.489 E1.91827
G1 X43.590 Y108.636 E1.92584
G1 X43.826 Y108.812 E1.93341
G1 X44.040 Y109.014 E1.94099
G1 X44.229 Y109.239 E1.94856
G1 X44.391 Y109.485 E1.95613
G1 X44.523 Y109.748 E1.96371
G1 X44.624 Y110.024 E1.97128
G1 X44.692 Y110.311 E1.97885
G1 X44.726 Y110.603 E1.98643
G1 X44.726 Y110.897 E1.99400
G1 X44.692 Y111.189 E2.00157
G1 X44.624 Y111.476 E2.00915
G1 X44.523 Y111.752 E2.01672
G1 X44.391 Y112.015 E2.02429
G1 X44.229 Y112.261 E2.03187
G1 X44.040 Y112.486 E2.03944
G1 X43.826 Y112.688 E2.04701
G1 X43.590 Y112.864 E2.05459
G1 X43.336 Y113.011 E2.06216
G1 X43.065 Y113.127 E2.06974
G1 X42.784 Y113.212 E2.07731
G1 X42.494 Y113.263 E2.08488
G1 X42.287 Y113.275 E2.09022
G1 X42.225 Y112.699 F9000.000
G1 X41.974 Y112.687 E2.09669 F1470.000
G1 X41.750 Y112.648 E2.10253
G1 X41.533 Y112.583 E2.10837
G1 X41.150 Y112.392 E2.11939
G1 X40.946 Y112.244 E2.12586
G1 X40.781 Y112.089 E2.13170
G1 X40.635 Y111.915 E2.13754
G1 X40.511 Y111.725 E2.14338
G1 X40.409 Y111.523 E2.14922
G1 X40.331 Y111.309 E2.15506
G1 X40.279 Y111.089 E2.16090
G1 X40.253 Y110.863 E2.16673
G1 X40.253 Y110.637 E2.17257
G1 X40.279 Y110.411 E2.17841
G1 X40.401 Y110.001 E2.18944
G1 X40.511 Y109.775 E2.19591
G1 X40.635 Y109.585 E2.20174
G1 X40.781 Y109.411 E2.20758
G1 X40.946 Y109.256 E2.21342
G1 X41.128 Y109.120 E2.21926
G1 X41.325 Y109.007 E2.22510
G1 X41.533 Y108.917 E2.23094
G1 X41.949 Y108.817 E2.24196
G1 X42.200 Y108.799 E2.24843
G1 X42.426 Y108.813 E2.25427
G1 X42.650 Y108.852 E2.26011
G1 X42.867 Y108.917 E2.26595
G1 X43.075 Y109.007 E2.27179
G1 X43.272 Y109.120 E2.27763
G1 X43.454 Y109.256 E2.28346
G1 X43.619 Y109.411 E2.28930
G1 X43.765 Y109.585 E2.29514
G1 X43.889 Y109.775 E2.30098
G1 X43.991 Y109.977 E2.30682
G1 X44.069 Y110.191 E2.31266
G1 X44.121 Y110.411 E2.31850
G1 X44.147 Y110.637 E2.32434
G1 X44.147 Y110.863 E2.33017
G1 X44.121 Y111.089 E2.33601
G1 X44.069 Y111.309 E2.34185
G1 X43.991 Y111.523 E2.34769
G1 X43.889 Y111.725 E2.35353
G1 X43.765 Y111.915 E2.35937
G1 X43.619 Y112.089 E2.36521
G1 X43.454 Y112.244 E2.37104
G1 X43.272 Y112.380 E2.37688
G1 X43.075 Y112.493 E2.38272
G1 X42.867 Y112.583 E2.38856
G1 X42.650 Y112.648 E2.39440
G1 X42.311 Y112.694 E2.40319
G1 X42.101 Y112.918 F9000.000
G1 X95.350 Y106.450 F9000.000
G1 X95.350 Y90.850 E2.80476 F1470.000
G1 X99.950 Y90.850 E2.92317
G1 X99.950 Y106.450 E3.32473
G1 X95.437 Y106.450 E3.44091
G1 X94.771 Y106.450 F9000.000
G1 F300.000 E2.44091
G92 E0
G1 X89.797 Y83.271 F9000.000
G1 X97.456 Y89.936 F9000.000
G1 E1.00000 F300.000
G1 X97.267 Y89.893 E1.00500 F1470.000
G1 X97.086 Y89.822 E1.01001
G1 X96.917 Y89.725 E1.01501
G1 X96.765 Y89.604 E1.02002
G1 X96.633 Y89.461 E1.02502
G1 X96.523 Y89.300 E1.03003
G1 X96.439 Y89.125 E1.03503
G1 X96.382 Y88.939 E1.04004
G1 X96.353 Y88.747 E1.04504
G1 X96.353 Y88.553 E1.05005
G1 X96.377 Y88.394 E1.05418
G1 X96.439 Y88.175 E1.06005
G1 X96.523 Y88.000 E1.06505
G1 X96.633 Y87.839 E1.07006
G1 X96.765 Y87.696 E1.07506
G1 X96.917 Y87.575 E1.08007
G1 X97.086 Y87.478 E1.08507
G1 X97.267 Y87.407 E1.09008
G1 X97.456 Y87.364 E1.09508
G1 X97.650 Y87.349 E1.10009
G1 X97.844 Y87.364 E1.10509
G1 X98.033 Y87.407 E1.11010
G1 X98.214 Y87.478 E1.11510
G1 X98.383 Y87.575 E1.12011
G1 X98.535 Y87.696 E1.12511
G1 X98.667 Y87.839 E1.13011
G1 X98.777 Y88.000 E1.13512
G1 X98.861 Y88.175 E1.14012
G1 X98.918 Y88.361 E1.14513
G1 X98.947 Y88.553 E1.15013
G1 X98.947 Y88.747 E1.15514
G1 X98.918 Y88.939 E1.16014
G1 X98.861 Y89.125 E1.16515
G1 X98.777 Y89.300 E1.17015
G1 X98.667 Y89.461 E1.17516
G1 X98.535 Y89.604 E1.18016
G1 X98.383 Y89.725 E1.18517
G1 X98.214 Y89.822 E1.19017
G1 X98.033 Y89.893 E1.19518
G1 X97.844 Y89.936 E1.20018
G1 X97.543 Y89.943 E1.20794
G1 X97.335 Y90.088 F9000.000
G1 F300.000 E0.20794
G92 E0
G1 X97.650 Y90.332 F9000.000
G1 X150.777 Y109.748 F9000.000
G1 E1.00000 F300.000
G1 X150.909 Y109.485 E1.00757 F1470.000
G1 X151.071 Y109.239 E1.01514
G1 X151.260 Y109.014 E1.02272
G1 X151.474 Y108.812 E1.03029
G1 X151.710 Y108.636 E1.03786
G1 X151.965 Y108.489 E1.04544
G1 X152.235 Y108.373 E1.05301
G1 X152.517 Y108.288 E1.06058
G1 X152.806 Y108.237 E1.06816
G1 X153.100 Y108.220 E1.07573
G1 X153.334 Y108.234 E1.08178
G1 X153.683 Y108.288 E1.09087
G1 X153.965 Y108.373 E1.09844
G1 X154.235 Y108.489 E1.10602
G1 X154.490 Y108.636 E1.11359
G1 X154.726 Y108.812 E1.12116
G1 X154.940 Y109.014 E1.12874
G1 X155.129 Y109.239 E1.13631
G1 X155.291 Y109.485 E1.14388
G1 X155.423 Y109.748 E1.15146
G1 X155.524 Y110.025 E1.15904
G1 X155.592 Y110.311 E1.16661
G1 X155.626 Y110.603 E1.17418
G1 X155.626 Y110.897 E1.18175
G1 X155.592 Y111.189 E1.18932
G1 X155.524 Y111.475 E1.19689
G1 X155.423 Y111.752 E1.20447
G1 X155.291 Y112.015 E1.21205
G1 X155.129 Y112.261 E1.21961
G1 X154.940 Y112.486 E1.22719
G1 X154.726 Y112.688 E1.23477
G1 X154.490 Y112.864 E1.24234
G1 X154.235 Y113.011 E1.24991
G1 X153.965 Y113.127 E1.25749
G1 X153.684 Y113.212 E1.26506
G1 X153.394 Y113.263 E1.27263
G1 X153.100 Y113.280 E1.28021
G1 X152.806 Y113.263 E1.28778
G1 X152.517 Y113.212 E1.29535
G1 X152.235 Y113.127 E1.30293
G1 X151.458 Y112.793 E1.32469
G1 X151.458 Y112.674 E1.32775
G1 X151.260 Y112.486 E1.33478
G1 X151.071 Y112.261 E1.34236
G1 X150.909 Y112.015 E1.34993
G1 X150.777 Y111.752 E1.35750
G1 X150.676 Y111.475 E1.36508
G1 X150.608 Y111.189 E1.37265
G1 X150.574 Y110.897 E1.38022
G1 X150.574 Y110.603 E1.38780
G1 X150.608 Y110.311 E1.39537
G1 X150.676 Y110.025 E1.40294
G1 X150.747 Y109.829 E1.40829
G1 X151.300 Y110.002 F9000.000
G1 X151.411 Y109.775 E1.41479 F1470.000
G1 X151.535 Y109.585 E1.42062
G1 X151.681 Y109.411 E1.42646
G1 X151.846 Y109.256 E1.43230
G1 X152.028 Y109.120 E1.43814
G1 X152.225 Y109.007 E1.44398
G1 X152.433 Y108.917 E1.44982
G1 X152.650 Y108.852 E1.45566
G1 X152.874 Y108.813 E1.46149
G1 X153.100 Y108.799 E1.46733
G1 X153.327 Y108.813 E1.47317
G1 X153.550 Y108.852 E1.47901
G1 X153.767 Y108.917 E1.48485
G1 X153.975 Y109.007 E1.49069
G1 X154.172 Y109.120 E1.49653
G1 X154.354 Y109.256 E1.50237
G1 X154.519 Y109.411 E1.50821
G1 X154.665 Y109.585 E1.51404
G1 X154.789 Y109.775 E1.51988
G1 X154.891 Y109.977 E1.52572
G1 X154.969 Y110.191 E1.53156
G1 X155.021 Y110.411 E1.53740
G1 X155.047 Y110.637 E1.54324
G1 X155.047 Y110.863 E1.54908
G1 X155.021 Y111.089 E1.55491
G1 X154.969 Y111.309 E1.56075
G1 X154.891 Y111.523 E1.56659
G1 X154.789 Y111.725 E1.57243
G1 X154.665 Y111.915 E1.57827
G1 X154.519 Y112.089 E1.58411
G1 X154.354 Y112.244 E1.58995
G1 X154.172 Y112.380 E1.59578
G1 X153.975 Y112.493 E1.60162
G1 X153.767 Y112.583 E1.60746
G1 X153.550 Y112.648 E1.61330
G1 X153.326 Y112.687 E1.61914
G1 X153.100 Y112.701 E1.62498
G1 X152.874 Y112.687 E1.63082
G1 X152.650 Y112.648 E1.63666
G1 X152.433 Y112.583 E1.64249
G1 X152.037 Y112.412 E1.65360
G1 X152.037 Y112.386 E1.65426
G1 X151.846 Y112.244 E1.66038
G1 X151.681 Y112.089 E1.66622
G1 X151.535 Y111.915 E1.67206
G1 X151.411 Y111.725 E1.67790
G1 X151.309 Y111.523 E1.68374
G1 X151.231 Y111.309 E1.68958
G1 X151.179 Y111.089 E1.69542
G1 X151.153 Y110.863 E1.70125
G1 X151.153 Y110.637 E1.70709
G1 X151.179 Y110.411 E1.71293
G1 X151.270 Y110.083 E1.72170
G1 X151.148 Y109.800 F9000.000
G1 X152.806 Y121.737 F9000.000
G1 X153.100 Y121.720 E1.72927 F1470.000
G1 X153.335 Y121.734 E1.73532
G1 X153.684 Y121.788 E1.74441
G1 X153.965 Y121.873 E1.75198
G1 X154.235 Y121.989 E1.75956
G1 X154.490 Y122.136 E1.76713
G1 X154.726 Y122.312 E1.77470
G1 X154.940 Y122.514 E1.78228
G1 X155.129 Y122.739 E1.78985
G1 X155.291 Y122.985 E1.79742
G1 X155.423 Y123.248 E1.80500
G1 X155.524 Y123.525 E1.81258
G1 X155.592 Y123.811 E1.82015
G1 X155.626 Y124.103 E1.82772
G1 X155.626 Y124.397 E1.83529
G1 X155.592 Y124.689 E1.84286
G1 X155.524 Y124.975 E1.85043
G1 X155.423 Y125.252 E1.85801
G1 X155.291 Y125.515 E1.86559
G1 X155.129 Y125.761 E1.87316
G1 X154.940 Y125.986 E1.88073
G1 X154.726 Y126.188 E1.88831
G1 X154.490 Y126.364 E1.89588
G1 X154.235 Y126.511 E1.90345
G1 X153.965 Y126.627 E1.91103
G1 X153.684 Y126.712 E1.91860
G1 X153.394 Y126.763 E1.92617
G1 X153.100 Y126.780 E1.93375
G1 X152.806 Y126.763 E1.94132
G1 X152.517 Y126.712 E1.94889
G1 X152.235 Y126.627 E1.95647
G1 X151.458 Y126.293 E1.97823
G1 X151.458 Y126.174 E1.98129
G1 X151.260 Y125.986 E1.98832
G1 X151.071 Y125.761 E1.99590
G1 X150.909 Y125.515 E2.00347
G1 X150.777 Y125.252 E2.01104
G1 X150.676 Y124.976 E2.01862
G1 X150.608 Y124.689 E2.02619
G1 X150.574 Y124.397 E2.03376
G1 X150.574 Y124.103 E2.04134
G1 X150.608 Y123.811 E2.04891
G1 X150.676 Y123.525 E2.05648
G1 X150.777 Y123.248 E2.06406
G1 X150.909 Y122.985 E2.07164
G1 X151.071 Y122.739 E2.07920
G1 X151.260 Y122.514 E2.08678
G1 X151.474 Y122.312 E2.09435
G1 X151.710 Y122.136 E2.10193
G1 X151.965 Y121.989 E2.10950
G1 X152.235 Y121.873 E2.11707
G1 X152.517 Y121.788 E2.12465
G1 X152.721 Y121.752 E2.12999
G1 X152.848 Y122.317 F9000.000
G1 X153.100 Y122.299 E2.13648 F1470.000
G1 X153.327 Y122.313 E2.14232
