; generated by Slic3r 1.0.0RC1 on 2013-12-23 at 18:29:18

; layer_height = 0.2
; perimeters = 2
; top_solid_layers = 4
; bottom_solid_layers = 2
; fill_density = 0.25
; perimeter_speed = 50
; infill_speed = 65
; travel_speed = 150
; nozzle_diameter = 0.5
; filament_diameter = 2.93
; extrusion_multiplier = 1
; perimeters extrusion width = 0.50mm
; infill extrusion width = 1.02mm
; solid infill extrusion width = 0.85mm
; top infill extrusion width = 0.85mm
; first layer extrusion width = 0.60mm

G21 ; set units to millimeters
M107
M190 S90 ; wait for bed temperature to be reached
M104 S220 ; set temperature

G28 X0; home x
G28 Y0;home y
G1 Y100 F2000 ; move y to middle
G28 Z0;home z
M109 S220 ; wait for temperature to be reached
G90 ; use absolute coordinates
G92 E0
M82 ; use absolute distances for extrusion
G1 F300.000 E-1.00000
G92 E0
G1 Z0.300 F9000.000
G1 X82.130 Y89.035 F9000.000
G1 E1.00000 F300.000
G1 X83.350 Y88.025 E1.04077 F2100.000
G1 X106.060 Y73.025 E1.74136
G1 X107.280 Y72.375 E1.77694
G1 X108.620 Y71.975 E1.81294
G1 X110.000 Y71.835 E1.84864
G1 X114.000 Y71.835 E1.95161
G1 X115.400 Y71.975 E1.98783
G1 X116.740 Y72.385 E2.02390
G1 X117.980 Y73.045 E2.06006
G1 X119.060 Y73.935 E2.09608
G1 X119.950 Y75.015 E2.13211
G1 X120.610 Y76.255 E2.16826
G1 X121.020 Y77.595 E2.20434
G1 X121.160 Y78.995 E2.24055
G1 X121.160 Y103.995 E2.88408
G1 X121.110 Y104.825 E2.90549
G1 X120.970 Y105.635 E2.92665
G1 X116.970 Y122.635 E3.37620
G1 X116.530 Y123.925 E3.41128
G1 X115.850 Y125.115 E3.44656
G1 X114.960 Y126.155 E3.48180
G1 X113.890 Y127.005 E3.51698
G1 X112.670 Y127.635 E3.55232
G1 X111.360 Y128.025 E3.58750
G1 X110.000 Y128.155 E3.62267
G1 X86.000 Y128.155 E4.24046
G1 X84.600 Y128.015 E4.27668
G1 X83.260 Y127.605 E4.31275
G1 X82.020 Y126.945 E4.34891
G1 X80.940 Y126.055 E4.38493
G1 X80.050 Y124.975 E4.42096
G1 X79.390 Y123.735 E4.45712
G1 X78.980 Y122.395 E4.49319
G1 X78.840 Y120.995 E4.52941
G1 X78.840 Y106.995 E4.88978
G1 X78.880 Y106.285 E4.90809
G1 X80.170 Y93.285 E5.24437
G1 X80.500 Y91.735 E5.28516
G1 X81.160 Y90.295 E5.32594
G1 X82.077 Y89.103 E5.36463
G1 X82.540 Y89.435 F9000.000
G1 X83.660 Y88.505 E5.40211 F2100.000
G1 X106.370 Y73.505 E6.10270
G1 X107.500 Y72.905 E6.13563
G1 X108.730 Y72.545 E6.16862
G1 X110.000 Y72.415 E6.20148
G1 X114.000 Y72.415 E6.30445
G1 X115.280 Y72.545 E6.33757
G1 X116.520 Y72.915 E6.37088
G1 X117.650 Y73.525 E6.40393
G1 X118.650 Y74.345 E6.43722
G1 X119.470 Y75.345 E6.47051
G1 X120.080 Y76.475 E6.50356
G1 X120.450 Y77.715 E6.53687
G1 X120.580 Y78.995 E6.56999
G1 X120.580 Y103.995 E7.21352
G1 X120.530 Y104.755 E7.23313
G1 X120.400 Y105.505 E7.25272
G1 X116.400 Y122.505 E7.70227
G1 X116.000 Y123.695 E7.73459
G1 X115.380 Y124.785 E7.76687
G1 X114.560 Y125.735 E7.79917
G1 X113.570 Y126.515 E7.83162
G1 X112.460 Y127.095 E7.86385
G1 X111.250 Y127.455 E7.89635
G1 X110.000 Y127.575 E7.92868
G1 X86.000 Y127.575 E8.54647
G1 X84.720 Y127.445 E8.57958
G1 X83.480 Y127.075 E8.61289
G1 X82.350 Y126.465 E8.64595
G1 X81.350 Y125.645 E8.67924
G1 X80.530 Y124.645 E8.71253
G1 X79.920 Y123.515 E8.74558
G1 X79.550 Y122.275 E8.77889
G1 X79.420 Y120.995 E8.81201
G1 X79.420 Y106.995 E9.17239
G1 X79.450 Y106.345 E9.18914
G1 X80.740 Y93.345 E9.52542
G1 X81.050 Y91.915 E9.56308
G1 X81.660 Y90.595 E9.60051
G1 X82.488 Y89.504 E9.63576
G1 F300.000 E8.63576
G92 E0
G1 X108.798 Y113.966 F9000.000
G1 E1.00000 F300.000
G1 X108.786 Y114.194 E1.00586 F1470.000
G1 X108.743 Y114.383 E1.01087
G1 X108.672 Y114.564 E1.01587
G1 X108.575 Y114.733 E1.02088
G1 X108.454 Y114.885 E1.02588
G1 X108.311 Y115.017 E1.03089
G1 X108.150 Y115.127 E1.03589
G1 X107.975 Y115.211 E1.04090
G1 X107.789 Y115.268 E1.04590
G1 X107.597 Y115.297 E1.05091
G1 X107.403 Y115.297 E1.05591
G1 X107.211 Y115.268 E1.06092
G1 X107.025 Y115.211 E1.06592
G1 X106.850 Y115.127 E1.07093
G1 X106.689 Y115.017 E1.07593
G1 X106.546 Y114.885 E1.08093
G1 X106.425 Y114.733 E1.08594
G1 X106.328 Y114.564 E1.09094
G1 X106.257 Y114.383 E1.09595
G1 X106.214 Y114.194 E1.10095
G1 X106.199 Y114.000 E1.10596
G1 X106.214 Y113.806 E1.11096
G1 X106.257 Y113.617 E1.11597
G1 X106.328 Y113.436 E1.12097
G1 X106.425 Y113.267 E1.12598
G1 X106.546 Y113.115 E1.13098
G1 X106.689 Y112.983 E1.13599
G1 X106.850 Y112.873 E1.14099
G1 X107.025 Y112.789 E1.14600
G1 X107.178 Y112.742 E1.15013
G1 X107.403 Y112.703 E1.15600
G1 X107.597 Y112.703 E1.16100
G1 X107.789 Y112.732 E1.16601
G1 X107.943 Y112.779 E1.17014
G1 X108.150 Y112.873 E1.17601
G1 X108.311 Y112.983 E1.18101
G1 X108.454 Y113.115 E1.18602
G1 X108.575 Y113.267 E1.19102
G1 X108.672 Y113.436 E1.19603
G1 X108.743 Y113.617 E1.20103
G1 X108.792 Y113.880 E1.20792
G1 X108.998 Y114.077 F9000.000
G1 X108.441 Y115.629 F9000.000
G1 X109.121 Y115.165 E1.22914 F2100.000
G1 X109.121 Y120.121 E1.35673
G1 X86.879 Y120.121 E1.92929
G1 X86.879 Y115.542 E2.04718
G1 X87.313 Y115.751 E2.05958
G1 X87.581 Y115.834 E2.06682
G1 X87.859 Y115.876 E2.07406
G1 X88.141 Y115.876 E2.08129
G1 X88.419 Y115.834 E2.08853
G1 X88.687 Y115.751 E2.09577
G1 X88.941 Y115.629 E2.10300
G1 X89.173 Y115.471 E2.11024
G1 X89.379 Y115.279 E2.11748
G1 X89.554 Y115.060 E2.12471
G1 X89.695 Y114.816 E2.13195
G1 X89.797 Y114.554 E2.13919
G1 X89.860 Y114.280 E2.14642
G1 X89.881 Y114.000 E2.15366
G1 X89.860 Y113.720 E2.16090
G1 X89.797 Y113.446 E2.16813
G1 X89.695 Y113.184 E2.17537
G1 X89.554 Y112.940 E2.18261
G1 X89.379 Y112.721 E2.18984
G1 X89.173 Y112.529 E2.19708
G1 X88.940 Y112.371 E2.20432
G1 X88.687 Y112.249 E2.21156
G1 X88.419 Y112.166 E2.21879
G1 X88.141 Y112.124 E2.22603
G1 X87.859 Y112.124 E2.23326
G1 X87.581 Y112.166 E2.24050
G1 X87.313 Y112.249 E2.24774
G1 X86.879 Y112.458 E2.26015
G1 X86.879 Y107.879 E2.37803
G1 X109.121 Y107.879 E2.95059
G1 X109.121 Y112.835 E3.07818
G1 X108.441 Y112.371 E3.09940
G1 X108.187 Y112.249 E3.10664
G1 X107.919 Y112.166 E3.11387
G1 X107.641 Y112.124 E3.12111
G1 X107.360 Y112.124 E3.12834
G1 X107.081 Y112.166 E3.13558
G1 X106.813 Y112.249 E3.14282
G1 X106.560 Y112.371 E3.15006
G1 X106.327 Y112.529 E3.15729
G1 X106.121 Y112.721 E3.16453
G1 X105.946 Y112.940 E3.17177
G1 X105.805 Y113.184 E3.17900
G1 X105.703 Y113.446 E3.18624
G1 X105.640 Y113.720 E3.19348
G1 X105.625 Y114.077 E3.20268
G1 X105.640 Y114.280 E3.20793
G1 X105.703 Y114.554 E3.21517
G1 X105.805 Y114.816 E3.22241
G1 X105.946 Y115.060 E3.22964
G1 X106.121 Y115.279 E3.23688
G1 X106.327 Y115.471 E3.24412
G1 X106.559 Y115.629 E3.25135
G1 X106.813 Y115.751 E3.25859
G1 X107.081 Y115.834 E3.26583
G1 X107.359 Y115.876 E3.27306
G1 X107.641 Y115.876 E3.28030
G1 X107.919 Y115.834 E3.28754
G1 X108.187 Y115.751 E3.29477
G1 X108.362 Y115.667 E3.29978
G1 X89.286 Y114.194 F9000.000
G1 X89.301 Y114.000 E3.30478 F1470.000
G1 X89.286 Y113.806 E3.30979
G1 X89.243 Y113.617 E3.31479
G1 X89.172 Y113.436 E3.31980
G1 X89.075 Y113.267 E3.32480
G1 X88.954 Y113.115 E3.32981
G1 X88.811 Y112.983 E3.33481
G1 X88.650 Y112.873 E3.33982
G1 X88.475 Y112.789 E3.34482
G1 X88.289 Y112.732 E3.34982
G1 X88.097 Y112.703 E3.35483
G1 X87.903 Y112.703 E3.35983
G1 X87.711 Y112.732 E3.36484
G1 X87.525 Y112.789 E3.36984
G1 X87.350 Y112.873 E3.37485
G1 X87.189 Y112.983 E3.37985
G1 X87.046 Y113.115 E3.38486
G1 X86.925 Y113.267 E3.38986
G1 X86.507 Y113.992 E3.41140
G1 X86.300 Y113.936 E3.41691
G1 X86.300 Y107.300 E3.58774
G1 X109.700 Y107.300 E4.19009
G1 X109.700 Y120.700 E4.53502
G1 X86.300 Y120.700 E5.13736
G1 X86.300 Y114.064 E5.30819
G1 X86.507 Y114.008 E5.31371
G1 X86.925 Y114.733 E5.33524
G1 X87.046 Y114.885 E5.34025
G1 X87.189 Y115.017 E5.34525
G1 X87.350 Y115.127 E5.35026
G1 X87.525 Y115.211 E5.35526
G1 X87.711 Y115.268 E5.36027
G1 X87.903 Y115.297 E5.36527
G1 X88.097 Y115.297 E5.37028
G1 X88.289 Y115.268 E5.37528
G1 X88.475 Y115.211 E5.38029
G1 X88.650 Y115.127 E5.38529
G1 X88.811 Y115.017 E5.39030
G1 X88.954 Y114.885 E5.39530
G1 X89.075 Y114.733 E5.40030
G1 X89.172 Y114.564 E5.40531
G1 X89.267 Y114.278 E5.41307
G1 X89.467 Y114.123 F9000.000
G1 X88.384 Y111.766 F9000.000
G1 X87.269 Y110.651 E5.45377 F1680.000
G1 X87.269 Y111.471 E5.47494
G1 X87.571 Y111.773 E5.48595
G1 F300.000 E4.48595
G92 E0
G1 X83.000 Y106.876 F9000.000
G1 X87.327 Y119.731 F9000.000
G1 E1.00000 F300.000
G1 X87.269 Y119.673 E1.00212 F1680.000
G1 X87.269 Y118.853 E1.02328
G1 X88.147 Y119.731 E1.05533
G1 X88.967 Y119.731 E1.07650
G1 X87.269 Y118.033 E1.13848
G1 X87.269 Y117.212 E1.15964
G1 X89.788 Y119.731 E1.25156
G1 X90.608 Y119.731 E1.27272
G1 X87.269 Y116.392 E1.39457
G1 X87.963 Y116.266 E1.41277
G1 X91.428 Y119.731 E1.53922
G1 X92.248 Y119.731 E1.56038
G1 X88.679 Y116.162 E1.69063
G1 X89.237 Y115.899 E1.70654
G1 X93.068 Y119.731 E1.84636
G1 X93.889 Y119.731 E1.86753
G1 X89.682 Y115.525 E2.02103
G1 X90.017 Y115.039 E2.03625
G1 X94.709 Y119.731 E2.20747
G1 X95.529 Y119.731 E2.22864
G1 X90.227 Y114.429 E2.42214
G1 X90.238 Y113.619 E2.44303
G1 X96.349 Y119.731 E2.66607
G1 X97.169 Y119.731 E2.68723
G1 X87.269 Y109.831 E3.04854
G1 X87.269 Y109.010 E3.06970
G1 X97.990 Y119.731 E3.46094
G1 X98.810 Y119.731 E3.48210
G1 X87.348 Y108.269 E3.90040
G1 X88.168 Y108.269 E3.92156
G1 X99.630 Y119.731 E4.33986
G1 X100.450 Y119.731 E4.36102
G1 X88.988 Y108.269 E4.77932
G1 X89.808 Y108.269 E4.80048
G1 X101.270 Y119.731 E5.21878
G1 X102.091 Y119.731 E5.23994
G1 X90.629 Y108.269 E5.65824
G1 X91.449 Y108.269 E5.67940
G1 X102.911 Y119.731 E6.09770
G1 X103.731 Y119.731 E6.11886
G1 X92.269 Y108.269 E6.53716
G1 X93.089 Y108.269 E6.55832
G1 X104.551 Y119.731 E6.97661
G1 X105.371 Y119.731 E6.99778
G1 X93.909 Y108.269 E7.41607
G1 X94.730 Y108.269 E7.43724
G1 X106.192 Y119.731 E7.85553
G1 X107.012 Y119.731 E7.87670
G1 X95.550 Y108.269 E8.29499
G1 X96.370 Y108.269 E8.31616
G1 X107.832 Y119.731 E8.73445
G1 X108.652 Y119.731 E8.75562
G1 X97.190 Y108.269 E9.17391
G1 X98.010 Y108.269 E9.19508
G1 X108.731 Y118.990 E9.58631
G1 X108.731 Y118.169 E9.60748
G1 X106.680 Y116.119 E9.68232
G1 X107.648 Y116.266 E9.70757
G1 X108.731 Y117.349 E9.74710
G1 X108.731 Y116.529 E9.76826
G1 X108.321 Y116.118 E9.78324
G1 X105.391 Y114.829 F9000.000
G1 X98.831 Y108.269 E10.02266 F1680.000
G1 X99.651 Y108.269 E10.04383
G1 X105.238 Y113.856 E10.24773
G1 X105.386 Y113.184 E10.26550
G1 X100.471 Y108.269 E10.44486
G1 X101.291 Y108.269 E10.46603
G1 X105.675 Y112.653 E10.62602
G1 X106.074 Y112.232 E10.64100
G1 X102.111 Y108.269 E10.78561
G1 X102.932 Y108.269 E10.80677
G1 X106.587 Y111.924 E10.94017
G1 X107.232 Y111.749 E10.95741
G1 X103.752 Y108.269 E11.08440
G1 X104.572 Y108.269 E11.10557
G1 X108.124 Y111.821 E11.23519
G1 X108.731 Y111.608 E11.25179
G1 X105.392 Y108.269 E11.37364
G1 X106.212 Y108.269 E11.39480
G1 X108.731 Y110.788 E11.48672
G1 X108.731 Y109.967 E11.50788
G1 X107.033 Y108.269 E11.56986
G1 X107.853 Y108.269 E11.59103
G1 X108.731 Y109.147 E11.62307
G1 X108.731 Y108.327 E11.64424
G1 X108.673 Y108.269 E11.64635
G1 X109.223 Y113.378 F9000.000
G1 X109.309 Y113.464 E11.64827 F840.000
G1 X109.181 Y113.840 E11.65455 F840.000
G1 X109.309 Y113.967 E11.65740 F840.000
G1 X109.159 Y114.321 E11.66348 F840.000
G1 X109.309 Y114.470 E11.66683 F840.000
G1 X109.038 Y114.703 E11.67247 F840.000
G1 X109.065 Y114.730 E11.67307 F840.000
G1 F300.000 E10.67307
G92 E0
G1 X109.207 Y114.026 F9000.000
G1 X105.673 Y103.260 F9000.000
G1 E1.00000 F300.000
G1 X105.950 Y102.971 E1.00714 F840.000
G1 X105.966 Y102.987 E1.00756 F840.000
G1 X105.673 Y103.260 F9000.000
G1 X105.449 Y103.036 E1.01320 F840.000
G1 X104.834 Y102.987 E1.02420 F840.000
G1 X104.996 Y103.150 E1.02830 F840.000
G1 X92.466 Y102.987 F9000.000
G1 X92.450 Y102.971 E1.02872 F840.000
G1 X92.173 Y103.260 E1.03586 F840.000
G1 X91.949 Y103.036 E1.04149 F840.000
G1 X91.334 Y102.987 E1.05250 F840.000
G1 X91.496 Y103.150 E1.05659 F840.000
G1 X91.365 Y102.574 F9000.000
G1 X91.127 Y102.491 E1.06306 F1470.000
G1 X90.925 Y102.389 E1.06890
G1 X90.735 Y102.265 E1.07474
G1 X90.561 Y102.119 E1.08058
G1 X90.406 Y101.954 E1.08642
G1 X90.270 Y101.772 E1.09225
G1 X90.157 Y101.575 E1.09809
G1 X90.067 Y101.367 E1.10393
G1 X90.002 Y101.150 E1.10977
G1 X89.963 Y100.926 E1.11561
G1 X89.949 Y100.700 E1.12145
G1 X89.963 Y100.474 E1.12729
G1 X90.002 Y100.250 E1.13312
G1 X90.067 Y100.033 E1.13896
G1 X90.157 Y99.825 E1.14480
G1 X90.391 Y99.466 E1.15583
G1 X90.561 Y99.281 E1.16230
G1 X90.735 Y99.135 E1.16814
G1 X90.925 Y99.011 E1.17397
G1 X91.127 Y98.909 E1.17981
G1 X91.341 Y98.831 E1.18565
G1 X91.762 Y98.756 E1.19668
G1 X92.013 Y98.753 E1.20314
G1 X92.239 Y98.779 E1.20898
G1 X92.459 Y98.831 E1.21482
G1 X92.673 Y98.909 E1.22066
G1 X92.875 Y99.011 E1.22650
G1 X93.065 Y99.135 E1.23234
G1 X93.239 Y99.281 E1.23818
G1 X93.394 Y99.446 E1.24402
G1 X93.530 Y99.628 E1.24985
G1 X93.643 Y99.825 E1.25569
G1 X93.733 Y100.033 E1.26153
G1 X93.798 Y100.250 E1.26737
G1 X93.837 Y100.474 E1.27321
G1 X93.851 Y100.700 E1.27905
G1 X93.837 Y100.926 E1.28489
G1 X93.798 Y101.150 E1.29073
G1 X93.733 Y101.367 E1.29656
G1 X93.643 Y101.575 E1.30240
G1 X93.530 Y101.772 E1.30824
G1 X93.394 Y101.954 E1.31408
G1 X93.239 Y102.119 E1.31992
G1 X93.065 Y102.265 E1.32576
G1 X92.875 Y102.389 E1.33160
G1 X92.673 Y102.491 E1.33744
G1 X92.459 Y102.569 E1.34327
G1 X92.239 Y102.621 E1.34911
G1 X92.013 Y102.647 E1.35495
G1 X91.787 Y102.647 E1.36079
G1 X91.449 Y102.594 E1.36959
G1 X91.183 Y102.748 F9000.000
G1 X104.080 Y102.135 F9000.000
G1 X103.906 Y101.954 E1.37606 F1470.000
G1 X103.770 Y101.772 E1.38189
G1 X103.657 Y101.575 E1.38773
G1 X103.567 Y101.367 E1.39357
G1 X103.502 Y101.150 E1.39941
G1 X103.463 Y100.926 E1.40525
G1 X103.449 Y100.700 E1.41109
G1 X103.463 Y100.474 E1.41693
G1 X103.560 Y100.056 E1.42795
G1 X103.657 Y99.825 E1.43442
G1 X103.770 Y99.628 E1.44026
G1 X103.906 Y99.446 E1.44610
G1 X104.061 Y99.281 E1.45194
G1 X104.235 Y99.135 E1.45778
G1 X104.605 Y98.920 E1.46880
G1 X104.841 Y98.831 E1.47527
G1 X105.061 Y98.779 E1.48111
G1 X105.287 Y98.753 E1.48695
G1 X105.513 Y98.753 E1.49279
G1 X105.739 Y98.779 E1.49862
G1 X105.959 Y98.831 E1.50446
G1 X106.173 Y98.909 E1.51030
G1 X106.544 Y99.122 E1.52133
G1 X106.739 Y99.281 E1.52779
G1 X106.894 Y99.446 E1.53363
G1 X107.030 Y99.628 E1.53947
G1 X107.143 Y99.825 E1.54531
G1 X107.291 Y100.227 E1.55634
G1 X107.337 Y100.474 E1.56280
G1 X107.351 Y100.700 E1.56864
G1 X107.337 Y100.926 E1.57448
G1 X107.298 Y101.150 E1.58032
G1 X107.233 Y101.367 E1.58616
G1 X107.143 Y101.575 E1.59200
G1 X107.030 Y101.772 E1.59784
G1 X106.894 Y101.954 E1.60368
G1 X106.739 Y102.119 E1.60951
G1 X106.565 Y102.265 E1.61535
G1 X106.375 Y102.389 E1.62119
G1 X106.173 Y102.491 E1.62703
G1 X105.959 Y102.569 E1.63287
G1 X105.739 Y102.621 E1.63871
G1 X105.513 Y102.647 E1.64455
G1 X105.287 Y102.647 E1.65039
G1 X105.061 Y102.621 E1.65622
G1 X104.841 Y102.569 E1.66206
G1 X104.627 Y102.491 E1.66790
G1 X104.425 Y102.389 E1.67374
G1 X104.147 Y102.190 E1.68254
G1 X103.840 Y102.209 F9000.000
G1 X103.664 Y102.540 F9000.000
G1 X104.356 Y103.121 E1.70581 F2100.000
G1 X92.944 Y103.121 E1.99959
G1 X93.636 Y102.540 E2.02287
G1 X93.838 Y102.326 E2.03044
G1 X94.014 Y102.090 E2.03801
G1 X94.161 Y101.835 E2.04559
G1 X94.277 Y101.565 E2.05316
G1 X94.362 Y101.283 E2.06073
G1 X94.413 Y100.994 E2.06831
G1 X94.430 Y100.700 E2.07588
G1 X94.413 Y100.406 E2.08345
G1 X94.362 Y100.117 E2.09103
G1 X94.277 Y99.835 E2.09860
G1 X94.161 Y99.565 E2.10618
G1 X94.014 Y99.310 E2.11375
G1 X93.838 Y99.074 E2.12132
G1 X93.636 Y98.860 E2.12890
G1 X93.411 Y98.671 E2.13647
G1 X93.165 Y98.509 E2.14404
G1 X92.902 Y98.377 E2.15162
G1 X92.626 Y98.276 E2.15919
G1 X92.339 Y98.208 E2.16676
G1 X92.047 Y98.174 E2.17434
G1 X91.753 Y98.174 E2.18191
G1 X91.404 Y98.222 E2.19098
G1 X91.174 Y98.276 E2.19705
G1 X90.898 Y98.377 E2.20462
G1 X90.586 Y98.541 E2.21369
G1 X90.389 Y98.671 E2.21976
G1 X90.164 Y98.860 E2.22733
G1 X89.962 Y99.074 E2.23491
G1 X89.757 Y99.360 E2.24397
G1 X89.639 Y99.564 E2.25004
G1 X89.523 Y99.835 E2.25762
G1 X89.438 Y100.117 E2.26519
G1 X89.387 Y100.406 E2.27277
G1 X89.370 Y100.700 E2.28034
G1 X89.387 Y100.994 E2.28791
G1 X89.438 Y101.284 E2.29549
G1 X89.523 Y101.565 E2.30306
G1 X89.639 Y101.836 E2.31063
G1 X89.786 Y102.090 E2.31821
G1 X89.962 Y102.326 E2.32578
G1 X90.164 Y102.540 E2.33335
G1 X90.856 Y103.121 E2.35663
G1 X88.179 Y103.121 E2.42556
