; generated by Slic3r 1.0.0RC1 on 2014-02-16 at 15:09:36

; layer_height = 0.2
; perimeters = 2
; top_solid_layers = 6
; bottom_solid_layers = 4
; fill_density = 0.30
; perimeter_speed = 60
; infill_speed = 80
; travel_speed = 150
; nozzle_diameter = 0.4
; filament_diameter = 3
; extrusion_multiplier = 1
; perimeters extrusion width = 0.40mm
; infill extrusion width = 0.67mm
; solid infill extrusion width = 0.67mm
; top infill extrusion width = 0.67mm
; first layer extrusion width = 0.60mm

G21 ; set units to millimeters
M107
M190 S100 ; wait for bed temperature to be reached
M104 S255 ; set temperature
G1 Z30 F200 ; move z to avoid crashes
G28 X0; home x
G28 Y0;home y
G1 Y100 F6000 ; move y to middle
G28 Z0;home z
M109 S255 ; wait for temperature to be reached
G90 ; use absolute coordinates
G92 E0
M82 ; use absolute distances for extrusion
G1 F300.000 E-1.00000
G92 E0
G1 Z0.300 F9000.000
G1 X43.675 Y71.099 F9000.000
G1 E1.00000 F300.000
G1 X44.535 Y70.579 E1.02376 F2520.000
G1 X49.015 Y68.289 E1.14272
G1 X50.065 Y67.849 E1.16964
G1 X51.165 Y67.589 E1.19636
G1 X53.095 Y67.289 E1.24254
G1 X53.095 Y67.309 E1.24301
G1 X53.605 Y67.219 E1.25526
G1 X127.405 Y60.789 E3.00673
G1 X128.035 Y60.769 E3.02164
G1 X154.035 Y60.789 E3.63636
G1 X155.415 Y60.919 E3.66913
G1 X156.755 Y61.329 E3.70226
G1 X157.985 Y61.989 E3.73527
G1 X159.055 Y62.869 E3.76802
G1 X159.945 Y63.949 E3.80111
G1 X160.595 Y65.179 E3.83400
G1 X161.005 Y66.519 E3.86713
G1 X161.135 Y67.909 E3.90014
G1 X161.105 Y102.329 E4.71394
G1 X161.085 Y102.879 E4.72695
G1 X160.985 Y103.979 E4.75307
G1 X156.025 Y137.949 E5.56474
G1 X155.675 Y139.349 E5.59886
G1 X155.045 Y140.649 E5.63302
G1 X154.165 Y141.799 E5.66725
G1 X153.065 Y142.749 E5.70162
G1 X151.805 Y143.449 E5.73570
G1 X150.425 Y143.889 E5.76994
G1 X148.985 Y144.029 E5.80415
G1 X55.355 Y144.029 E8.01786
G1 X54.635 Y143.999 E8.03490
G1 X50.285 Y143.559 E8.13827
G1 X49.515 Y143.439 E8.15670
G1 X48.585 Y143.199 E8.17941
G1 X48.155 Y143.059 E8.19010
G1 X47.175 Y142.659 E8.21512
G1 X46.475 Y142.289 E8.23384
G1 X46.095 Y142.059 E8.24435
G1 X45.335 Y141.529 E8.26625
G1 X44.985 Y141.249 E8.27685
G1 X44.165 Y140.479 E8.30345
G1 X43.865 Y140.149 E8.31399
G1 X43.225 Y139.349 E8.33821
G1 X42.545 Y138.179 E8.37021
G1 X42.095 Y136.909 E8.40206
G1 X41.895 Y135.569 E8.43410
G1 X38.875 Y81.089 E9.72415
G1 X38.875 Y80.209 E9.74496
G1 X38.925 Y79.489 E9.76202
G1 X39.085 Y78.389 E9.78831
G1 X39.245 Y77.689 E9.80528
G1 X39.555 Y76.709 E9.82959
G1 X39.815 Y76.039 E9.84658
G1 X40.265 Y75.079 E9.87164
G1 X40.625 Y74.449 E9.88880
G1 X41.175 Y73.629 E9.91214
G1 X41.615 Y73.059 E9.92917
G1 X42.365 Y72.239 E9.95544
G1 X42.895 Y71.739 E9.97267
G1 X43.610 Y71.152 E9.99455
G1 X43.995 Y71.549 F9000.000
G1 X44.795 Y71.069 E10.01661 F2520.000
G1 X49.275 Y68.779 E10.13556
G1 X50.235 Y68.379 E10.16015
G1 X51.245 Y68.139 E10.18470
G1 X53.655 Y67.779 E10.24231
G1 X127.455 Y61.349 E11.99379
G1 X128.035 Y61.319 E12.00752
G1 X154.035 Y61.339 E12.62224
G1 X155.305 Y61.469 E12.65243
G1 X156.535 Y61.839 E12.68280
G1 X157.675 Y62.449 E12.71336
G1 X158.665 Y63.269 E12.74376
G1 X159.485 Y64.259 E12.77415
G1 X160.085 Y65.399 E12.80461
G1 X160.455 Y66.629 E12.83498
G1 X160.585 Y67.909 E12.86540
G1 X160.555 Y102.329 E13.67920
G1 X160.535 Y102.839 E13.69126
G1 X160.435 Y103.899 E13.71644
G1 X155.475 Y137.869 E14.52811
G1 X155.145 Y139.159 E14.55959
G1 X154.565 Y140.359 E14.59111
G1 X153.755 Y141.419 E14.62265
G1 X152.745 Y142.289 E14.65416
G1 X151.585 Y142.939 E14.68560
G1 X150.315 Y143.339 E14.71708
G1 X148.985 Y143.479 E14.74870
G1 X55.355 Y143.479 E16.96242
G1 X54.695 Y143.439 E16.97805
G1 X50.345 Y142.999 E17.08142
G1 X49.615 Y142.889 E17.09888
G1 X48.755 Y142.669 E17.11986
G1 X48.325 Y142.529 E17.13056
G1 X47.425 Y142.159 E17.15356
G1 X46.755 Y141.809 E17.17143
G1 X46.375 Y141.579 E17.18194
G1 X45.675 Y141.089 E17.20214
G1 X45.325 Y140.809 E17.21274
G1 X44.575 Y140.099 E17.23715
G1 X44.275 Y139.769 E17.24770
G1 X43.675 Y139.019 E17.27041
G1 X42.815 Y137.369 E17.31440
G1 X42.445 Y135.539 E17.35854
G1 X39.425 Y81.059 E18.64860
G1 X39.435 Y80.249 E18.66775
G1 X39.485 Y79.529 E18.68482
G1 X39.635 Y78.519 E18.70896
G1 X39.795 Y77.819 E18.72593
G1 X40.075 Y76.909 E18.74845
G1 X40.335 Y76.239 E18.76544
G1 X40.755 Y75.359 E18.78849
G1 X41.115 Y74.729 E18.80565
G1 X41.615 Y73.969 E18.82716
G1 X42.055 Y73.399 E18.84418
G1 X42.745 Y72.639 E18.86845
G1 X43.275 Y72.139 E18.88568
G1 X43.930 Y71.602 E18.90571
G1 F300.000 E17.90571
G92 E0
G1 X49.453 Y77.906 F9000.000
G1 E1.00000 F300.000
G1 X50.720 Y77.059 E1.03603 F2100.000
G1 X52.185 Y76.768 E1.07135
G1 X55.244 Y76.768 E1.14368
G1 X56.709 Y77.059 E1.17900
G1 X57.976 Y77.906 E1.21503
G1 X58.823 Y79.173 E1.25106
G1 X59.120 Y80.668 E1.28710
G1 X58.823 Y82.163 E1.32313
G1 X57.976 Y83.430 E1.35916
G1 X56.709 Y84.276 E1.39519
G1 X55.244 Y84.568 E1.43051
G1 X52.185 Y84.568 E1.50284
G1 X50.720 Y84.276 E1.53816
G1 X49.453 Y83.430 E1.57419
G1 X48.317 Y81.731 E1.62251
G1 X48.520 Y81.731 E1.62730
G1 X48.309 Y80.668 E1.65292
G1 X48.606 Y79.173 E1.68895
G1 X49.406 Y77.976 E1.72301
G1 X49.344 Y77.360 F9000.000
G1 F300.000 E0.72301
G92 E0
G1 X45.824 Y74.560 F9000.000
G1 X76.230 Y92.055 F9000.000
G1 E1.00000 F300.000
G1 X77.077 Y90.788 E1.03603 F2100.000
G1 X78.344 Y89.941 E1.07206
G1 X79.809 Y89.649 E1.10738
G1 X82.868 Y89.649 E1.17971
G1 X84.333 Y89.941 E1.21503
G1 X85.601 Y90.787 E1.25106
G1 X86.447 Y92.055 E1.28709
G1 X86.745 Y93.549 E1.32313
G1 X86.447 Y95.044 E1.35916
G1 X85.601 Y96.311 E1.39519
G1 X84.333 Y97.158 E1.43122
G1 X82.868 Y97.449 E1.46654
G1 X79.809 Y97.449 E1.53887
G1 X78.344 Y97.158 E1.57419
G1 X77.077 Y96.311 E1.61022
G1 X76.230 Y95.044 E1.64625
G1 X75.933 Y93.549 E1.68229
G1 X76.214 Y92.137 E1.71634
G1 X75.921 Y91.591 F9000.000
G1 F300.000 E0.71634
G92 E0
G1 X76.910 Y90.621 F9000.000
G1 X79.295 Y111.921 F9000.000
G1 E1.00000 F300.000
G1 X88.386 Y111.921 E1.21494 F1764.000
G1 X88.386 Y121.929 E1.45156
G1 X88.352 Y122.579 E1.46697
G1 X88.249 Y123.231 E1.48256
G1 X88.078 Y123.868 E1.49815
G1 X87.842 Y124.483 E1.51374
G1 X87.542 Y125.071 E1.52933
G1 X87.183 Y125.624 E1.54492
G1 X86.768 Y126.137 E1.56052
G1 X86.302 Y126.603 E1.57611
G1 X85.789 Y127.018 E1.59170
G1 X85.236 Y127.377 E1.60729
G1 X84.648 Y127.677 E1.62289
G1 X84.033 Y127.913 E1.63848
G1 X83.396 Y128.084 E1.65407
G1 X82.745 Y128.187 E1.66966
G1 X82.094 Y128.221 E1.68507
G1 X72.178 Y128.221 E1.91951
G1 X74.168 Y124.399 E2.02139
G1 X74.049 Y124.333 E2.02460
G1 X74.787 Y122.885 E2.06303
G1 X74.895 Y122.543 E2.07150
G1 X79.263 Y111.998 E2.34136
G1 X79.368 Y111.368 F9000.000
G1 X78.923 Y111.364 F9000.000
G1 X74.684 Y121.596 E2.60321 F2520.000
G1 X74.512 Y121.579 E2.60731
G1 X74.091 Y119.462 E2.65835
G1 X73.121 Y118.010 E2.69962
G1 X71.669 Y117.040 E2.74089
G1 X70.042 Y116.717 E2.78013
G1 X66.873 Y116.717 E2.85505
G1 X66.023 Y116.886 E2.87553
G1 X65.915 Y116.619 E2.88234
G1 X68.092 Y115.213 E2.94360
G1 X69.718 Y113.916 E2.99277
G1 X71.206 Y112.463 E3.04194
G1 X72.543 Y110.871 E3.09110
G1 X73.714 Y109.153 E3.14025
G1 X74.708 Y107.327 E3.18941
G1 X75.516 Y105.410 E3.23859
G1 X76.129 Y103.424 E3.28775
G1 X76.541 Y101.386 E3.33691
G1 X76.748 Y99.316 E3.38608
G1 X76.748 Y96.762 E3.44648
G1 X78.127 Y97.683 E3.48568
G1 X79.754 Y98.006 E3.52492
G1 X82.923 Y98.006 E3.59984
G1 X84.551 Y97.683 E3.63908
G1 X86.002 Y96.713 E3.68035
G1 X86.972 Y95.261 E3.72162
G1 X87.313 Y93.549 E3.76289
G1 X86.972 Y91.837 E3.80417
G1 X86.002 Y90.386 E3.84544
G1 X84.551 Y89.416 E3.88671
G1 X82.923 Y89.092 E3.92595
G1 X79.754 Y89.092 E4.00087
G1 X78.127 Y89.416 E4.04010
G1 X76.675 Y90.386 E4.08138
G1 X75.705 Y91.837 E4.12265
G1 X75.332 Y93.714 E4.16790
G1 X74.232 Y92.404 E4.20835
G1 X72.744 Y90.951 E4.25752
G1 X71.118 Y89.655 E4.30668
G1 X69.371 Y88.527 E4.35585
G1 X67.521 Y87.579 E4.40500
G1 X65.585 Y86.818 E4.45417
G1 X63.583 Y86.255 E4.50335
G1 X61.536 Y85.894 E4.55250
G1 X59.462 Y85.739 E4.60166
G1 X57.383 Y85.791 E4.65084
G1 X56.020 Y85.962 E4.68331
G1 X56.002 Y85.867 E4.68559
G1 X54.215 Y86.150 E4.72837
G1 X52.521 Y85.882 E4.76892
G1 X51.483 Y85.353 E4.79646
G1 X51.538 Y85.125 E4.80199
G1 X55.299 Y85.125 E4.89091
G1 X56.927 Y84.801 E4.93015
G1 X58.378 Y83.832 E4.97142
G1 X59.348 Y82.380 E5.01269
G1 X59.688 Y80.668 E5.05396
G1 X59.348 Y78.956 E5.09524
G1 X58.378 Y77.504 E5.13651
G1 X56.763 Y76.425 E5.18243
G1 X56.763 Y76.502 E5.18425
G1 X55.299 Y76.211 E5.21954
G1 X51.537 Y76.211 E5.30848
G1 X51.483 Y75.983 E5.31401
G1 X52.521 Y75.454 E5.34157
G1 X54.215 Y75.186 E5.38212
G1 X55.909 Y75.454 E5.42266
G1 X56.737 Y75.876 E5.44463
G1 X56.813 Y75.651 E5.45025
G1 X62.175 Y77.342 E5.58317
G1 X70.765 Y79.247 E5.79120
G1 X79.488 Y80.394 E5.99921
G1 X88.076 Y80.778 E6.20247
G1 X106.052 Y80.778 E6.62748
G1 X106.890 Y80.844 E6.64735
G1 X107.674 Y81.032 E6.66642
G1 X108.420 Y81.341 E6.68549
G1 X109.107 Y81.762 E6.70456
G1 X109.721 Y82.286 E6.72363
G1 X110.244 Y82.899 E6.74271
G1 X110.666 Y83.587 E6.76178
G1 X110.975 Y84.332 E6.78085
G1 X111.163 Y85.117 E6.79992
G1 X111.229 Y85.954 E6.81979
G1 X111.229 Y93.899 E7.00763
G1 X110.327 Y92.785 E7.04152
G1 X109.427 Y91.885 E7.07161
G1 X108.438 Y91.085 E7.10169
G1 X107.371 Y90.391 E7.13178
G1 X106.237 Y89.814 E7.16187
G1 X105.049 Y89.358 E7.19196
G1 X103.819 Y89.028 E7.22205
G1 X102.562 Y88.829 E7.25214
G1 X101.291 Y88.763 E7.28223
G1 X100.021 Y88.829 E7.31232
G1 X98.764 Y89.028 E7.34241
G1 X97.534 Y89.358 E7.37250
G1 X96.346 Y89.814 E7.40258
G1 X95.212 Y90.391 E7.43267
G1 X94.145 Y91.085 E7.46276
G1 X93.156 Y91.885 E7.49285
G1 X92.304 Y92.737 E7.52134
G1 X91.455 Y93.774 E7.55302
G1 X90.762 Y94.842 E7.58311
G1 X90.184 Y95.976 E7.61320
G1 X89.728 Y97.164 E7.64329
G1 X89.399 Y98.393 E7.67338
G1 X89.200 Y99.650 E7.70347
G1 X89.133 Y100.921 E7.73356
G1 X89.200 Y102.192 E7.76364
G1 X89.399 Y103.449 E7.79373
G1 X89.728 Y104.678 E7.82382
G1 X90.184 Y105.866 E7.85391
G1 X90.762 Y107.000 E7.88400
G1 X91.455 Y108.067 E7.91409
G1 X92.256 Y109.056 E7.94418
G1 X93.156 Y109.956 E7.97427
G1 X94.145 Y110.757 E8.00436
G1 X95.212 Y111.450 E8.03445
G1 X96.286 Y111.997 E8.06294
G1 X97.534 Y112.484 E8.09461
G1 X98.764 Y112.813 E8.12470
G1 X100.020 Y113.012 E8.15479
G1 X101.291 Y113.079 E8.18488
G1 X102.562 Y113.012 E8.21497
G1 X103.819 Y112.813 E8.24506
G1 X105.048 Y112.484 E8.27515
G1 X106.237 Y112.028 E8.30524
G1 X107.371 Y111.450 E8.33533
G1 X108.438 Y110.757 E8.36542
G1 X109.427 Y109.956 E8.39551
G1 X110.327 Y109.056 E8.42559
G1 X111.229 Y107.942 E8.45948
G1 X111.229 Y122.064 E8.79336
G1 X110.493 Y122.064 E8.81075
G1 X110.493 Y128.778 E8.96949
G1 X112.639 Y128.778 E9.02022
G1 X112.639 Y132.278 E9.10297
G1 X119.062 Y132.278 E9.25483
G1 X119.062 Y128.778 E9.33758
G1 X134.346 Y128.778 E9.69894
G1 X140.746 Y132.669 E9.87602
G1 X145.143 Y132.669 E9.97998
G1 X145.856 Y132.419 E9.99785
G1 X146.134 Y132.353 E10.00461
G1 X146.700 Y132.279 E10.01811
G1 X147.271 Y132.279 E10.03161
G1 X147.556 Y132.307 E10.03836
G1 X148.129 Y132.422 E10.05218
G1 X148.129 Y136.064 E10.13829
G1 X55.388 Y136.064 E12.33098
G1 X51.131 Y135.640 E12.43213
G1 X50.682 Y135.509 E12.44319
G1 X50.394 Y135.364 E12.45081
G1 X50.130 Y135.179 E12.45842
G1 X49.843 Y134.901 E12.46787
G1 X49.843 Y132.422 E12.52649
G1 X50.416 Y132.307 E12.54031
G1 X50.700 Y132.279 E12.54707
G1 X51.271 Y132.279 E12.56057
G1 X51.838 Y132.353 E12.57407
G1 X52.116 Y132.419 E12.58083
G1 X52.829 Y132.669 E12.59870
G1 X57.226 Y132.669 E12.70265
G1 X64.272 Y128.390 E12.89755
G1 X64.224 Y127.285 E12.92370
G1 X63.839 Y124.367 E12.99328
G1 X65.245 Y125.307 E13.03326
G1 X66.873 Y125.631 E13.07250
G1 X70.042 Y125.631 E13.14742
G1 X71.669 Y125.307 E13.18666
G1 X73.024 Y124.402 E13.22517
G1 X73.423 Y124.623 E13.23596
G1 X71.260 Y128.778 E13.34670
G1 X82.108 Y128.778 E13.60319
G1 X82.803 Y128.741 E13.61963
G1 X83.512 Y128.629 E13.63661
G1 X84.205 Y128.443 E13.65358
G1 X84.875 Y128.186 E13.67055
G1 X85.515 Y127.860 E13.68752
G1 X86.117 Y127.469 E13.70450
G1 X86.675 Y127.018 E13.72147
G1 X87.183 Y126.510 E13.73844
G1 X87.634 Y125.952 E13.75542
G1 X88.025 Y125.350 E13.77239
G1 X88.351 Y124.710 E13.78936
G1 X88.608 Y124.040 E13.80634
G1 X88.794 Y123.347 E13.82331
G1 X88.907 Y122.638 E13.84028
G1 X88.943 Y121.943 E13.85672
G1 X88.943 Y111.364 E14.10685
G1 X79.006 Y111.364 E14.34179
G1 F300.000 E13.34179
G92 E0
G1 X79.167 Y111.721 F9000.000
G1 X49.040 Y84.163 F9000.000
G1 E1.00000 F300.000
G1 X48.257 Y83.788 E1.02052 F2100.000
G1 X47.877 Y83.427 E1.03293
G1 X47.509 Y82.958 E1.04701
G1 X47.215 Y82.440 E1.06110
G1 X47.000 Y81.885 E1.07518
G1 X46.795 Y80.975 E1.09723
G1 X46.843 Y80.954 E1.09847
G1 X46.825 Y80.709 E1.10428
G1 X46.869 Y80.115 E1.11837
G1 X47.000 Y79.534 E1.13245
G1 X47.215 Y78.978 E1.14654
G1 X47.509 Y78.460 E1.16062
G1 X47.877 Y77.991 E1.17471
G1 X48.265 Y77.623 E1.18736
G1 X48.961 Y77.268 E1.20583
G1 X49.102 Y77.428 E1.21086
G1 X48.081 Y78.956 E1.25432
G1 X47.741 Y80.668 E1.29559
G1 X47.841 Y81.173 E1.30778
G1 X47.275 Y81.173 E1.32116
G1 X49.171 Y84.012 E1.40187
G1 X49.095 Y84.100 E1.40463
G1 X47.938 Y84.252 F9000.000
G1 X47.463 Y83.803 E1.42007 F1764.000
G1 X47.045 Y83.269 E1.43611
G1 X46.710 Y82.680 E1.45214
G1 X46.465 Y82.047 E1.46818
G1 X46.316 Y81.385 E1.48421
G1 X46.266 Y80.709 E1.50025
G1 X46.316 Y80.033 E1.51628
G1 X46.465 Y79.371 E1.53232
G1 X46.710 Y78.739 E1.54835
G1 X47.045 Y78.149 E1.56439
G1 X47.463 Y77.615 E1.58042
G1 X47.940 Y77.163 E1.59596
G1 X52.347 Y74.918 E1.71289
G1 X54.215 Y74.622 E1.75761
G1 X56.083 Y74.918 E1.80233
G1 X56.417 Y75.088 E1.81119
G1 X56.462 Y74.956 E1.81448
G1 X62.319 Y76.804 E1.95969
G1 X70.862 Y78.698 E2.16657
G1 X79.537 Y79.839 E2.37344
G1 X88.088 Y80.221 E2.57583
G1 X106.074 Y80.221 E3.00107
G1 X106.977 Y80.292 E3.02249
G1 X107.847 Y80.501 E3.04364
G1 X108.673 Y80.843 E3.06478
G1 X109.436 Y81.310 E3.08593
G1 X110.116 Y81.891 E3.10707
G1 X110.697 Y82.571 E3.12821
G1 X111.164 Y83.334 E3.14936
G1 X111.506 Y84.160 E3.17050
G1 X111.715 Y85.029 E3.19164
G1 X111.786 Y85.933 E3.21307
G1 X111.786 Y95.494 E3.43914
G1 X111.614 Y95.546 E3.44339
G1 X110.676 Y94.102 E3.48408
G1 X109.912 Y93.159 E3.51279
G1 X109.054 Y92.300 E3.54149
G1 X108.110 Y91.536 E3.57020
G1 X107.092 Y90.875 E3.59891
G1 X106.010 Y90.323 E3.62762
G1 X104.876 Y89.888 E3.65633
G1 X103.703 Y89.574 E3.68504
G1 X102.504 Y89.384 E3.71375
G1 X101.291 Y89.320 E3.74245
G1 X100.079 Y89.384 E3.77116
G1 X98.880 Y89.574 E3.79987
G1 X97.707 Y89.888 E3.82858
G1 X96.573 Y90.323 E3.85729
G1 X95.491 Y90.875 E3.88600
G1 X94.473 Y91.536 E3.91470
G1 X93.529 Y92.300 E3.94341
G1 X92.671 Y93.159 E3.97212
G1 X91.906 Y94.102 E4.00083
G1 X91.245 Y95.121 E4.02954
G1 X90.694 Y96.203 E4.05825
G1 X90.259 Y97.336 E4.08695
G1 X89.944 Y98.509 E4.11566
G1 X89.755 Y99.708 E4.14437
G1 X89.691 Y100.921 E4.17308
G1 X89.755 Y102.133 E4.20179
G1 X89.944 Y103.333 E4.23050
G1 X90.259 Y104.506 E4.25921
G1 X90.694 Y105.639 E4.28791
G1 X91.245 Y106.721 E4.31662
G1 X91.906 Y107.739 E4.34533
G1 X92.671 Y108.683 E4.37404
G1 X93.529 Y109.542 E4.40275
G1 X94.473 Y110.306 E4.43146
G1 X95.491 Y110.967 E4.46016
G1 X96.573 Y111.518 E4.48887
G1 X97.707 Y111.953 E4.51758
G1 X98.880 Y112.268 E4.54629
G1 X100.079 Y112.458 E4.57500
G1 X101.291 Y112.521 E4.60371
G1 X102.504 Y112.458 E4.63242
G1 X103.703 Y112.268 E4.66112
G1 X104.876 Y111.953 E4.68983
G1 X106.010 Y111.518 E4.71854
G1 X107.092 Y110.967 E4.74725
G1 X108.110 Y110.306 E4.77596
G1 X109.054 Y109.542 E4.80467
G1 X109.912 Y108.683 E4.83337
G1 X110.676 Y107.739 E4.86208
G1 X111.614 Y106.296 E4.90277
G1 X111.786 Y106.347 E4.90702
G1 X111.786 Y121.929 E5.27542
G1 X111.822 Y122.621 E5.29180
G1 X111.051 Y122.621 E5.31005
G1 X111.051 Y128.221 E5.44245
G1 X113.196 Y128.221 E5.49318
G1 X113.196 Y131.721 E5.57593
G1 X118.505 Y131.721 E5.70145
G1 X118.505 Y128.221 E5.78420
G1 X134.502 Y128.221 E6.16242
G1 X140.902 Y132.112 E6.33950
G1 X145.041 Y132.112 E6.43736
G1 X145.403 Y131.975 E6.44651
G1 X146.025 Y131.807 E6.46174
G1 X146.664 Y131.722 E6.47698
G1 X146.986 Y131.712 E6.48460
G1 X147.308 Y131.722 E6.49222
G1 X147.947 Y131.807 E6.50745
G1 X148.686 Y132.010 E6.52558
G1 X148.686 Y136.621 E6.63459
G1 X55.360 Y136.621 E8.84110
